!!!!SEGMENT: pl-wtm--r-47-n--001-004_noskowski-zygmunt--quatuor-en-mi-mineur-allegro-feroce.krn
!!!cenid: 18xx:2728
!!!COM: Noskowski, Zygmunt
!!!COM-rismID: pe106604
!!!CDT: 1846/05/02-1909/07/23
!!!CNT: Polish
!!!OPR: Quatuor en mi mineur
!!!OTL: Allegro feroce
!!!OMV: 004
!!!PDT:
!!!AGN: Secular; String quartet
!!!SMS-siglum: PL-Wtm
!!!SMS-shelfmark: R 47/N
!!!SMS-shelfwork: 001-004 M
!!!SMS-variant:
!!!SMS-altvar:
!!!NIFC-rismSourceID: 1001100158
!!!NIFC-rismChildID: 1001100158
!!!NIFC-islandoraID:
!!!URL-pdf-islandora:
!!!URL-scan:
!!!IIIF:
!!!ONB-nifc: UWAGA: części Kwartetu: 1. Allegro espressivo, 2. Moderato scherzando, 3. Largo tragico, 4. Allegro feroce
!!!AIN: 3 cello 1 viola
!!!key:
**kern	**dynam	**kern	**dynam	**kern	**dynam	**kern	**dynam
*part4	*part4	*part3	*part3	*part2	*part2	*part1	*part1
*staff4	*	*staff3	*	*staff2	*	*staff1	*
*Icello	*	*Iviola	*	*Icello	*	*Icello	*
*I"Violoncelle	*	*I"Viola	*	*I"Violon [2]	*	*I"Violon [1]	*
*mI"Violoncello	*	*	*	*mI"Violino II	*	*mI"Violino I	*
*I'	*	*I'	*	*I'	*	*I'	*
*mI'vc	*	*mI'va	*	*mI'vn II	*	*mI'vn I	*
*clefF4	*	*clefC3	*	*clefG2	*	*clefG2	*
*k[f#]	*	*k[f#]	*	*k[f#]	*	*k[f#]	*
*e:	*	*e:	*	*e:	*	*e:	*
*M4/4	*	*M4/4	*	*M4/4	*	*M4/4	*
*met(c)	*	*met(c)	*	*met(c)	*	*met(c)	*
*>[A,A1,A,B]	*	*>[A,A1,A,B]	*	*>[A,A1,A,B]	*	*>[A,A1,A,B]	*
=1	=1	=1	=1	=1	=1	=1	=1
*>A	*	*>A	*	*>A	*	*>A	*
*	*	*Xtuplet	*	*	*	*Xtuplet	*
!!!OMD:
!!!OMD-mod: Allegro feroce
!LO:TX:i:a:t=Allegro feroce:mod=	!	!LO:TX:i:a:t=Allegro feroce:mod=	!	!LO:TX:i:a:t=Allegro feroce:mod=	!	!LO:TX:i:a:t=Allegro feroce:mod=	!
!	!	!	!LO:DY:b:color=blue	!	!	!LO:TX:a:t=P:problem=32,16,8,4\right&colon; global	!LO:DY:b:color=blue
1r	.	12G#X/L	p	1r	.	12g#X/L	p
.	.	12A/	.	.	.	12a/	.
.	.	12G#/J	.	.	.	12g#/J	.
.	.	12A/L	.	.	.	12a/L	.
.	.	12G#/	.	.	.	12g#/	.
.	.	12A/J	.	.	.	12a/J	.
.	.	12G#/L	.	.	.	12g#/L	.
.	.	12A/	.	.	.	12a/	.
.	.	12G#/J	.	.	.	12g#/J	.
.	.	12A/L	.	.	.	12a/L	.
.	.	12G#/	.	.	.	12g#/	.
.	.	12A/J	.	.	.	12a/J	.
=2	=2	=2	=2	=2	=2	=2	=2
!	!	!	!	!	!	!	!LO:HP:b
1r	.	8G#X/	.	1r	.	12g#X/L	>
.	.	.	.	.	.	12a/	.
.	.	8r	.	.	.	.	.
.	.	.	.	.	.	12f#/J	.
!	!	!	!LO:DY:b	!	!	!	!
.	.	4r	mf	.	.	12e/L	.
.	.	.	.	.	.	12d#X/	.
.	.	.	.	.	.	12c#X/J	]
!	!	!	!LO:HP:b	!	!	!	!LO:HP:b
.	.	12BB#X/L	<	.	.	12B#X/L	<
.	.	12C#X/	.	.	.	12c#/	.
.	.	12D#X/J	.	.	.	12d#/J	.
.	.	12E/L	.	.	.	12e/L	.
.	.	12F#/	.	.	.	12f#/	.
.	.	12G#/J	[	.	.	12g#/J	[
=3	=3	=3	=3	=3	=3	=3	=3
!	!	!	!LO:DY:b:color=blue	!	!	!	!LO:DY:b:color=blue
1r	.	12A/L	p	1r	.	12a/L	p
.	.	12B/	.	.	.	12b/	.
.	.	12A/J	.	.	.	12a/J	.
.	.	12B/L	.	.	.	12b/L	.
.	.	12A/	.	.	.	12a/	.
.	.	12B/J	.	.	.	12b/J	.
.	.	12A/L	.	.	.	12a/L	.
.	.	12B/	.	.	.	12b/	.
.	.	12A/J	.	.	.	12a/J	.
.	.	12B/L	.	.	.	12b/L	.
.	.	12A/	.	.	.	12a/	.
.	.	12B/J	.	.	.	12b/J	.
=4	=4	=4	=4	=4	=4	=4	=4
!	!	!	!	!	!	!	!LO:HP:b
1r	.	8A/	.	1r	.	12a/L	>
.	.	.	.	.	.	12g#X/	.
.	.	8r	.	.	.	.	.
.	.	.	.	.	.	12f#/J	.
.	.	4r	.	.	.	12e/L	.
.	.	.	.	.	.	12d#X/	.
.	.	.	.	.	.	12c#X/J	]
*	*	*tuplet	*	*	*	*	*
*	*	*Xbrackettup	*	*	*	*	*
!	!	!	!LO:DY:b	!	!	!	!LO:HP:b
.	.	12r	mf	.	.	12B#X/L	<
!	!	!	!LO:HP:b	!	!	!	!
.	.	12D#X/L	<	.	.	12d#/	.
.	.	12E/J	.	.	.	12e/J	.
*	*	*Xtuplet	*	*	*	*	*
.	.	12F#/L	.	.	.	12f#/L	.
.	.	12G#X/	.	.	.	12g#/	.
.	.	12A/J	[	.	.	12a/J	[
!!LO:LB:g=original
=5	=5	=5	=5	=5	=5	=5	=5
!	!	!	!LO:DY:b	!	!	!	!LO:DY:b:color=blue
1r	.	12B/L	f	1r	.	12b\L	mf
.	.	12cn/	.	.	.	12ccn\	.
.	.	12B/J	.	.	.	12b\J	.
.	.	12c/L	.	.	.	12cc\L	.
.	.	12B/	.	.	.	12b\	.
.	.	12c/J	.	.	.	12cc\J	.
.	.	12B/L	.	.	.	12b\L	.
.	.	12c/	.	.	.	12cc\	.
.	.	12B/J	.	.	.	12b\J	.
.	.	12c/L	.	.	.	12cc\L	.
.	.	12B/	.	.	.	12b\	.
.	.	12c/J	.	.	.	12cc\J	.
=6	=6	=6	=6	=6	=6	=6	=6
1r	.	12B/L	.	1r	.	12b\L	.
.	.	12c/	.	.	.	12cc\	.
.	.	12B/J	.	.	.	12b\J	.
.	.	8A/	.	.	.	12a/L	.
.	.	.	.	.	.	12f#/	.
.	.	8r	.	.	.	.	.
.	.	.	.	.	.	12g/J	.
.	.	12A/L	.	.	.	12a/L	.
.	.	12c/	.	.	.	12cc/	.
.	.	12B/J	.	.	.	12b/J	.
.	.	8A/	.	.	.	12a/L	.
.	.	.	.	.	.	12f#/	.
.	.	8r	.	.	.	.	.
.	.	.	.	.	.	12g/J	.
=7	=7	=7	=7	=7	=7	=7	=7
1r	.	12A\L	.	1r	.	12a\L	.
.	.	12e\	.	.	.	12ee\	.
.	.	12d#X\J	.	.	.	12dd#X\J	.
.	.	8c/	.	.	.	12cc/L	.
.	.	.	.	.	.	12a/	.
.	.	8r	.	.	.	.	.
.	.	.	.	.	.	12b/J	.
.	.	12c\L	.	.	.	12cc\L	.
.	.	12e\	.	.	.	12ee\	.
.	.	12d#\J	.	.	.	12dd#\J	.
.	.	8c\	.	.	.	12cc\L	.
.	.	.	.	.	.	12a\	.
.	.	8r	.	.	.	.	.
.	.	.	.	.	.	12b\J	.
=8	=8	=8	=8	=8	=8	=8	=8
1r	.	2r	.	1r	.	12cc\L	.
.	.	.	.	.	.	12gg\	.
.	.	.	.	.	.	12ff#\J	.
.	.	.	.	.	.	12ee\L	.
.	.	.	.	.	.	12dd#X\	.
.	.	.	.	.	.	12cc\J	.
.	.	12r	.	.	.	12b\L	.
!	!	!	!LO:DY:b:rj	!	!	!	!
.	.	12g\L	f	.	.	12gg\	.
.	.	12f#\J	.	.	.	12ff#\J	.
.	.	12e\L	.	.	.	12ee\L	.
.	.	12d#X\	.	.	.	12dd#\	.
.	.	12c\J	.	.	.	12cc\J	.
=9	=9	=9	=9	=9	=9	=9	=9
*	*	*tuplet	*	*	*	*	*
1r	.	12B/	.	1r	.	12b\L	.
.	.	12r	.	.	.	12gg\	.
.	.	12r	.	.	.	12ff#\J	.
!	!	!LO:TUP:a	!	!	!	!	!
.	.	12r	.	.	.	12ee\L	.
.	.	12g\L	.	.	.	12gg\	.
.	.	12f#\J	.	.	.	12ff#\J	.
!	!	!LO:TUP:a	!	!	!	!	!
.	.	12d#X\	.	.	.	12dd#X\L	.
.	.	12r	.	.	.	12gg\	.
.	.	12r	.	.	.	12ff#\J	.
!	!	!LO:TUP:a	!	!	!	!	!
.	.	12r	.	.	.	12ee\L	.
.	.	12g\L	.	.	.	12gg\	.
.	.	12f#\J	.	.	.	12ff#\J	.
!!LO:PB:g=original
=10	=10	=10	=10	=10	=10	=10	=10
*	*	*Xtuplet	*	*	*	*	*
(<8qDD/	.	.	.	.	.	.	.
!	!LO:DY:b	!	!	!	!	!	!
4D/)	mf	12d\L	.	4f#/	.	4a/	.
.	.	12e\	.	.	.	.	.
.	.	12d\J	.	.	.	.	.
(<8.C/L	.	12e-X\L	.	4f#/	.	4a/	.
.	.	12fn\	.	.	.	.	.
.	.	12e-\J	.	.	.	.	.
16AA'</Jk)	.	.	.	.	.	.	.
4BB/	.	12d\L	.	4f#/	.	4dd\	.
.	.	12en\	.	.	.	.	.
.	.	12d\J	.	.	.	.	.
(<8.AA/L	.	12c\L	.	4r	.	4r	.
.	.	12d\	.	.	.	.	.
.	.	12c\J	.	.	.	.	.
16FF#'</Jk)	.	.	.	.	.	.	.
=11	=11	=11	=11	=11	=11	=11	=11
!	!	!	!	!	!LO:DY:b:rj	!	!LO:DY:b
4GG/	.	12B/L	.	4g/	mf	4b/	mf
.	.	12c/	.	.	.	.	.
.	.	12B/J	.	.	.	.	.
(<8.FF#/L	.	12B/L	.	4b/	.	4dd\	.
.	.	12G/	.	.	.	.	.
.	.	12A/J	.	.	.	.	.
16EE'</Jk)	.	.	.	.	.	.	.
!	!	!	!	!	!LO:HP:b	!	!LO:HP:b
4DD/	.	12B/L	.	4g/	<	4b\	<
.	.	12G/	.	.	.	.	.
.	.	12A/J	.	.	.	.	.
4r	.	12B\L	.	4b/	.	4dd\	.
.	.	12d\	.	.	.	.	.
.	.	12g\J	.	.	.	.	.
=12	=12	=12	=12	=12	=12	=12	=12
(<8qGG/	.	.	.	.	.	.	.
4A\)	.	12b\L	.	4dd\	.	4ffn\	.
!	!	!	!LO:HP:b:t=cresc	!	!	!	!
.	.	12g\	<	.	[	.	.
.	.	12a\J	.	.	.	.	[
(>8.G\L	.	12b\L	.	4ffn\	.	4aa\	.
.	.	12dd\	.	.	.	.	.
.	.	12cc\J	.	.	.	.	.
!	!LO:HP:b:t=cresc	!	!	!	!	!	!
16E'>\Jk)	<	.	.	.	.	.	.
4Fn\	.	12b\L	.	4b\	.	4gg\	.
.	.	12cc\	.	.	.	.	.
.	.	12a\J	.	.	.	.	.
(>8.E\L	.	12g\L	.	4r	.	4r	.
.	.	12a\	.	.	.	.	.
.	.	12fn\J	.	.	.	.	.
16D'>\Jk)	.	.	.	.	.	.	.
=13	=13	=13	=13	=13	=13	=13	=13
!	!	!	!	!LO:MO:mod=!LO&colon;TX&colon;a&colon;i&colon;t=arco	!	!	!
!	!	!	!LO:DY:b	!LO:TX:a:t=arco	!LO:DY:b:rj	!	!LO:DY:b:rj
4C/	.	12e\L	f	4ee 4g 4c/	f	4gg 4cc 4e\	f
!	!	!	!	!	!	!LO:MO:mod=!LO&colon;TX&colon;a&colon;i&colon;t=arco	!
!	!	!	!	!	!	!LO:TX:a:t=arco	!
.	.	12c\	.	.	.	.	.
.	.	12d\J	.	.	.	.	.
(<8.BB/L	.	12e\L	.	8eeL 8g 8c/	.	8ggL 8cc 8e\	.
.	.	12g\	.	.	.	.	.
.	.	.	.	8eeJ 8g 8c/	.	8ggJ 8cc 8e\	.
.	.	12fn\J	.	.	.	.	.
16AA'</Jk)	.	.	.	.	.	.	.
4GG/	.	12e\L	.	4ee 4g 4c/	.	4gg 4cc 4e/	.
.	.	12c\	.	.	.	.	.
.	.	12d\J	.	.	.	.	.
4E 4GG 4CC/	.	12e\L	.	4cc 4e 4G/	.	4ee 4cc 4e/	.
.	.	12g\	.	.	.	.	.
.	.	12f\J	.	.	.	.	.
!!LO:LB:g=original
=14	=14	=14	=14	=14	=14	=14	=14
4G 4C 4EE/	.	12e\L	.	4g 4c/	.	4cc 4e 4G/	.
.	.	12g\	.	.	.	.	.
.	.	12fn\J	.	.	.	.	.
4E 4GG 4CC/	.	12e\L	.	4cc 4e 4G/	.	4ee 4e 4G/	.
.	.	12f\	.	.	.	.	.
.	.	12g\J	.	.	.	.	.
4FFn/	.	12a\L	.	4a 4fn 4A/	.	4dd 4d/	.
.	.	12f\	.	.	.	.	.
.	.	12e\J	.	.	.	.	.
4GG/	.	12d\L	.	4f 4G/	.	4g 4B/	.
.	.	12c\	.	.	.	.	.
.	.	12d\J	.	.	.	.	.
=15	=15	=15	=15	=15	=15	=15	=15
4B 4E 4GG\	.	12e\L	.	4e 4G/	.	4ee 4b 4e 4G/	.
.	.	12B\	.	.	.	.	.
.	.	12A\J	.	.	.	.	.
8GL 8BB 8EE\	.	12G/L	.	8gL 8B/	.	8eeL 8b 8e/	.
.	.	12A/	.	.	.	.	.
8GJ 8BB 8EE\	.	.	.	8gJ 8B/	.	8eeJ 8b 8e/	.
.	.	12G/J	.	.	.	.	.
4E 4AA 4CC/	.	12A\L	.	4a 4e 4A/	.	4ee 4cc 4e/	.
.	.	12c\	.	.	.	.	.
.	.	12d\J	.	.	.	.	.
4AA/	.	12e\L	.	4a 4e 4A/	.	4cc 4e/	.
.	.	12c\	.	.	.	.	.
.	.	12d\J	.	.	.	.	.
=16	=16	=16	=16	=16	=16	=16	=16
4C 4CC/	.	12e\L	.	4e 4A/	.	4a 4e 4A/	.
.	.	12c\	.	.	.	.	.
.	.	12d\J	.	.	.	.	.
4AA/	.	12e\L	.	4a 4c/	.	4cc 4e/	.
.	.	12G\	.	.	.	.	.
.	.	12A\J	.	.	.	.	.
4D\	.	12B/L	.	4g 4B/	.	4b 4d/	.
.	.	12A/	.	.	.	.	.
.	.	12G/J	.	.	.	.	.
4C/	.	12F#X/L	.	4f#X 4A/	.	4a 4d/	.
.	.	12E/	.	.	.	.	.
.	.	12F#/J	.	.	.	.	.
=17	=17	=17	=17	=17	=17	=17	=17
!	!	!	!LO:DY:b	!	!	!	!
4BB/	.	12G/L	ff	4g 4B/	.	4dd 4d/	.
.	.	12B/	.	.	.	.	.
.	.	12A/J	.	.	.	.	.
!	!LO:DY:b:rj	!	!	!	!LO:DY:b:rj	!	!LO:DY:b:rj
8GL 8BB\	ff	12G/L	.	8ggL 8g\	ff	8dddL 8dd 8d\	ff
.	.	12A/	.	.	.	.	.
8GJ 8BB\	.	.	.	8ggJ 8g\	.	8dddJ 8dd 8d\	.
.	.	12G/J	.	.	.	.	.
4G 4BB\	.	12G/L	.	4gg 4g\	.	4ddd 4dd 4d\	.
.	.	12A/	.	.	.	.	.
.	.	12B/J	.	.	.	.	.
4G 4C 4EE/	.	12c/L	.	4gg 4g\	.	4ccc 4cc\	.
.	.	12B/	.	.	.	.	.
.	.	12A/J	.	.	.	.	.
!!LO:LB:g=original
=18	=18	=18	=18	=18	=18	=18	=18
4G 4BB 4DD/	.	12d/L	.	4gg 4g\	.	4bb 4b 4d/	.
.	.	12B/	.	.	.	.	.
.	.	12A/J	.	.	.	.	.
8GL 8BB/	.	12G/L	.	8ggL 8g\	.	8dddL 8dd 8d\	.
.	.	12A/	.	.	.	.	.
8GJ 8BB/	.	.	.	8ggJ 8g\	.	8dddJ 8dd 8d\	.
.	.	12G/J	.	.	.	.	.
4G 4BB/	.	12G/L	.	4gg 4g\	.	4ddd 4dd 4d\	.
.	.	12A/	.	.	.	.	.
.	.	12B/J	.	.	.	.	.
4G 4C 4EE/	.	12c/L	.	4gg 4g\	.	4ccc 4cc\	.
.	.	12B/	.	.	.	.	.
.	.	12A/J	.	.	.	.	.
=19	=19	=19	=19	=19	=19	=19	=19
4G 4BB 4DD/	.	12G/L	.	4gg 4g\	.	4bb 4dd 4d\	.
.	.	12E/	.	.	.	.	.
.	.	12F#/J	.	.	.	.	.
4B 4E 4GG\	.	12G/L	.	4bb 4dd 4e\	.	4eee 4ee 4d\	.
.	.	12A/	.	.	.	.	.
.	.	12B/J	.	.	.	.	.
4c 4E 4AA\	.	12c\L	.	4aa 4cc 4e\	.	4ccc 4cc 4e\	.
.	.	12e\	.	.	.	.	.
.	.	12f#\J	.	.	.	.	.
4d 4G 4BB\	.	12g\L	.	4gg 4b 4d\	.	4bb 4b 4d\	.
.	.	12a\	.	.	.	.	.
.	.	12g\J	.	.	.	.	.
=20	=20	=20	=20	=20	=20	=20	=20
4e 4G 4C\	.	12a\L	.	4ee 4g\	.	4aa 4cc 4e\	.
.	.	12g\	.	.	.	.	.
.	.	12f#\J	.	.	.	.	.
4E 4AA 4CC/	.	12e\L	.	4ee 4g 4A/	.	4gg 4a 4e\	.
.	.	12f#\	.	.	.	.	.
.	.	12e\J	.	.	.	.	.
4F# 4AA 4DD/	.	12d\L	.	4dd 4f# 4A/	.	4ff# 4a 4d/	.
.	.	12e\	.	.	.	.	.
.	.	12f#\J	.	.	.	.	.
4G 4C 4EE/	.	12g\L	.	4cc 4e 4G/	.	4ee 4cc 4g/	.
.	.	12a\	.	.	.	.	.
.	.	12g\J	.	.	.	.	.
!!LO:REH:t=C
=21	=21	=21	=21	=21	=21	=21	=21
!LO:TX:b:B:t=C:color=blue:mod=	!	!	!	!	!	!LO:TX:B:a:t=C:color=blue:mod=	!
4D 4FF#/	.	12cc\L	.	4a 4c/	.	4dd 4d/	.
.	.	12b\	.	.	.	.	.
.	.	12a\J	.	.	.	.	.
4r	.	12g#X^>\L	.	4r	.	4r	.
.	.	12f##X\	.	.	.	.	.
.	.	12g#\J	.	.	.	.	.
2r	.	12g#\L	.	2r	.	2r	.
.	.	12f##\	.	.	.	.	.
.	.	12g#\J	.	.	.	.	.
.	.	12g#\L	.	.	.	.	.
.	.	12f##\	.	.	.	.	.
.	.	12g#\J	.	.	.	.	.
!!LO:LB:g=original
=22	=22	=22	=22	=22	=22	=22	=22
!	!LO:DY:a	!	!	!	!LO:DY:a	!	!LO:DY:a
4A 4D 4FF#\	sfz	12cc\L	.	4a 4c/	sfz	4dd 4d 4A/	sfz
.	.	12b\	.	.	.	.	.
.	.	12a\J	.	.	.	.	.
4r	.	12g#X^>\L	.	4r	.	4r	.
.	.	12f##X\	.	.	.	.	.
.	.	12g#\J	.	.	.	.	.
2r	.	12g#\L	.	2r	.	2r	.
.	.	12f##\	.	.	.	.	.
.	.	12g#\J	.	.	.	.	.
.	.	12g#\L	.	.	.	.	.
.	.	12f##\	.	.	.	.	.
.	.	12g#\J	.	.	.	.	.
=23	=23	=23	=23	=23	=23	=23	=23
!	!LO:DY:a	!	!	!	!LO:DY:a	!	!LO:DY:a
4A 4D 4FF#/	sfz	12a\L	.	4a 4c/	sfz	4dd 4d 4A/	sfz
.	.	12b\	.	.	.	.	.
.	.	12a\J	.	.	.	.	.
4r	.	12e-X^>\L	.	4r	.	4r	.
.	.	12fn\	.	.	.	.	.
.	.	12e-\J	.	.	.	.	.
2r	.	12e-\L	.	2r	.	2r	.
.	.	12f\	.	.	.	.	.
.	.	12e-\J	.	.	.	.	.
.	.	12e-\L	.	.	.	.	.
.	.	12f\	.	.	.	.	.
.	.	12e-\J	.	.	.	.	.
=24	=24	=24	=24	=24	=24	=24	=24
1r	.	12e-X\L	.	4r	.	1r	.
.	.	12fn\	.	.	.	.	.
.	.	12e-\J	.	.	.	.	.
*	*	*	*	*Xtuplet	*	*	*
!	!	!	!	!	!LO:DY:b:rj	!	!
.	.	8ee-X\	.	12A-X/L	f	.	.
.	.	.	.	12B-X/	.	.	.
.	.	8r	.	.	.	.	.
.	.	.	.	12A-/J	.	.	.
.	.	12e-\L	.	8A-/	.	.	.
.	.	12f\	.	.	.	.	.
.	.	.	.	8r	.	.	.
.	.	12e-\J	.	.	.	.	.
.	.	8ee-\	.	12G/L	.	.	.
.	.	.	.	12A-/	.	.	.
.	.	8r	.	.	.	.	.
.	.	.	.	12G/J	.	.	.
=25	=25	=25	=25	=25	=25	=25	=25
!	!	!	!LO:HP:b:t=dimin	!	!LO:HP:a:t=dimin	!	!
1r	.	12e-X\L	>	8A-X/	>	1r	.
.	.	12fn\	.	.	.	.	.
.	.	.	.	8r	.	.	.
.	.	12e-\J	.	.	.	.	.
.	.	8ee-X\	.	12A-X/L	.	.	.
.	.	.	.	12B-X/	.	.	.
.	.	8r	.	.	.	.	.
.	.	.	.	12A-/J	.	.	.
.	.	12e-\L	.	8A-/	.	.	.
.	.	12f\	.	.	.	.	.
.	.	.	.	8r	.	.	.
.	.	12e-\J	.	.	.	.	.
.	.	8ee-\	.	12A-/L	.	.	.
.	.	.	.	12G/	.	.	.
.	.	8r	.	.	.	.	.
.	.	.	.	12A-/J	.	.	.
!!LO:PB:g=original
=26	=26	=26	=26	=26	=26	=26	=26
!	!	!	!LO:DY:b:rj	!	!LO:DY:b:rj	!	!
1r	.	12en\L	p	8A-X/	p	1r	.
.	.	12fn\	.	.	.	.	.
.	.	.	.	8r	.	.	.
.	.	12e\J	.	.	.	.	.
.	.	8een\	.	12G#X/L	.	.	.
.	.	.	.	12F##X/	.	.	.
.	.	8r	.	.	.	.	.
.	.	.	.	12G#/J	.	.	.
.	.	12e\L	.	8G#/	.	.	.
.	.	12f\	.	.	.	.	.
.	.	.	.	8r	.	.	.
.	.	12e\J	.	.	.	.	.
.	.	8ee\	.	12G#/L	.	.	.
.	.	.	.	12F##/	.	.	.
.	.	8r	.	.	.	.	.
!	!	!	!	!	!LO:HP:a	!	!
.	.	.	.	12G#/J	>	.	.
=27	=27	=27	=27	=27	=27	=27	=27
!	!	!	!LO:HP:b	!	!	!	!
1r	.	12e\L	>	8A/	.	1r	.
.	.	12f#X\	.	.	.	.	.
.	.	.	.	8r	.	.	.
.	.	12e\J	.	.	.	.	.
.	.	8ee\	.	12A/L	.	.	.
.	.	.	.	12B/	.	.	.
.	.	8r	.	.	.	.	.
.	.	.	.	12A/J	.	.	.
.	.	12e\L	.	8c/	.	.	.
.	.	12f#\	.	.	.	.	.
.	.	.	.	8r	]	.	.
.	.	12e\J	]	.	.	.	.
.	.	8ee\	.	12A/L	.	.	.
.	.	.	.	12B/	.	.	.
.	.	8r	.	.	.	.	.
.	.	.	.	12A/J	.	.	.
=28	=28	=28	=28	=28	=28	=28	=28
!	!	!	!LO:DY:b:rj	!	!	!	!
4r	.	12e\L	p	8c/	.	4r	.
.	.	12a\	.	.	.	.	.
.	.	.	.	8r	.	.	.
.	.	12b\J	.	.	.	.	.
!LO:TX:a:t=P:problem=dopiski i poprawki ołówkiem w t. 28-29	!LO:DY:b:rj	!	!	!	!LO:DY:b:rj	!LO:TX:a:t=P:problem=dopiski i poprawki ołówkiem w t. 28-29	!LO:DY:b:rj
8A 8E 8AA\	p	12cc\L	.	4a 4e 4c/	p	8ee: 8cc: 8e:/	p
.	.	12b\	.	.	.	.	.
8r	.	.	.	.	.	8r	.
!	!LO:MO:mod=!null:null	!	!LO:MO:mod=!null:null	!	!	!	!
!	!LO:HP:b:t=crescendo	!	!LO:HP:b:t=crescendo	!	!	!	!
!	!LO:MO:mod=.	!	!LO:MO:mod=.	!	!	!	!
.	<	12a\J	<	.	.	.	.
!LO:MO:null:mod=!LO&colon;TX&colon;b&colon;i&colon;t=crescendo	!	!LO:MO:null:mod=!LO&colon;TX&colon;b&colon;i&colon;t=crescendo	!	!	!	!	!
!	!	!	!	!	!LO:HP:b:t=crescendo	!	!LO:HP:b:t=crescendo
8A 8E 8AA\	.	12cc\L	.	4a 4e 4c/	<	8ee: 8cc: 8e:/	<
.	.	12b\	.	.	.	.	.
8r	.	.	.	.	.	8r	.
.	.	12a\J	.	.	.	.	.
8A 8E 8AA\	.	12cc\L	.	4a 4e 4c/	.	8ee: 8cc: 8e:/	.
.	.	12b\	.	.	.	.	.
8r	.	.	.	.	.	8r	.
.	.	12a\J	.	.	.	.	.
=29	=29	=29	=29	=29	=29	=29	=29
8A 8E 8AA\	.	12cc\L	.	4a 4e 4c/	.	8ee 8cc 8e/	.
.	.	12b\	.	.	.	.	.
8r	.	.	.	.	.	8r	.
.	.	12a\J	.	.	.	.	.
8A 8E 8AA\	.	12ee\L	.	4ee 4a 4e 4c/	.	8gg 8cc 8e/	.
.	.	12dd\	.	.	.	.	.
8r	.	.	.	.	.	8r	.
.	.	12cc\J	.	.	.	.	.
8A 8E 8AA\	.	12ee\L	.	4ee 4a 4e 4c/	.	8gg 8cc 8e/	.
.	.	12dd\	.	.	.	.	.
8r	.	.	.	.	.	8r	.
.	.	12cc\J	.	.	.	.	.
8A 8E 8AA\	.	12ee\L	.	4ee 4a 4e 4c/	.	8gg 8cc 8e/	.
.	.	12dd\	.	.	.	.	.
8r	.	.	.	.	.	8r	.
.	.	12cc\J	.	.	.	.	.
!!LO:LB:g=original
=30	=30	=30	=30	=30	=30	=30	=30
4A 4E 4AA\	.	12ee\L	.	4ee 4a 4e 4c/	.	4gg 4cc 4e/	.
.	.	12dd\	.	.	.	.	.
!	!	!	!LO:DY:b	!	!	!	!
.	.	12cc\J	f	.	.	.	.
!	!LO:DY:b:rj	!	!	!	!LO:DY:b:rj	!	!LO:DY:b:rj
4A 4E 4AA\	f	12gg\L	.	4ee 4a 4e 4c/	f	4bb 4cc 4e/	f
.	.	12ff#\	.	.	.	.	.
.	.	12ee\J	.	.	.	.	.
4A 4E 4AA\	.	12gg\L	.	4ee 4a 4e 4c/	.	4bb 4cc 4e/	.
.	.	12ff#\	.	.	.	.	.
.	.	12ee\J	.	.	.	.	.
4A 4E 4AA\	.	12gg\L	.	4ee 4a 4e 4c/	.	4bb 4cc 4e/	.
.	.	12ff#\	.	.	.	.	.
.	.	12ee\J	.	.	.	.	.
=31	=31	=31	=31	=31	=31	=31	=31
4A 4E 4AA\	.	12gg\L	.	4ee 4a 4e 4c/	.	4bb 4cc 4e/	.
.	.	12ff#\	.	.	.	.	.
.	.	12ee\J	.	.	.	.	.
4A 4D\	.	12ff#\L	.	4ff# 4a 4d/	.	4aa 4cc 4d/	.
.	.	12ee\	.	.	.	.	.
.	.	12dd\J	.	.	.	.	.
4AA 4DD/	.	12cc\L	.	4ff# 4cc 4d/	.	4ddd 4dd 4d\	.
.	.	12a\	.	.	.	.	.
.	.	12f#\J	.	.	.	.	.
4d 4F# 4AA 4DD\	.	12d/L	.	4cc 4d/	.	4ff# 4a 4d/	.
.	.	12c/	.	.	.	.	.
.	.	12A/J	.	.	.	.	.
!!LO:REH:t=D
=32	=32	=32	=32	=32	=32	=32	=32
!LO:TX:b:B:t=D:color=blue:mod=	!	!	!	!	!	!LO:TX:a:B:t=D:color=blue:mod=	!
4B 4D 4GG\	.	4G/	.	4b 4d 4G/	.	12ggL 12b 12d 12G\	.
.	.	.	.	.	.	12ee\	.
.	.	.	.	.	.	12ff#\J	.
4r	.	4b 4e 4G\	.	4r	.	12gg\L	.
.	.	.	.	.	.	12ff#\	.
.	.	.	.	.	.	12ee\J	.
4B 4D 4GG\	.	2r	.	4r	.	12gg\L	.
.	.	.	.	.	.	12ff#\	.
.	.	.	.	.	.	12gg\J	.
4r	.	.	.	4dd 4f# 4A/	.	12aa\L	.
.	.	.	.	.	.	12bb\	.
.	.	.	.	.	.	12ccc\J	.
=33	=33	=33	=33	=33	=33	=33	=33
4B 4D 4GG\	.	4r	.	2r	.	12ddd\L	.
.	.	.	.	.	.	12eee\	.
.	.	.	.	.	.	12ddd\J	.
4r	.	4b 4e 4G\	.	.	.	12bb\L	.
.	.	.	.	.	.	12aa\	.
.	.	.	.	.	.	12gg\J	.
4B 4D 4GG\	.	2r	.	4r	.	12bb\L	.
.	.	.	.	.	.	12ccc\	.
.	.	.	.	.	.	12bb\J	.
4r	.	.	.	4dd 4f# 4A/	.	12aa\L	.
.	.	.	.	.	.	12gg\	.
.	.	.	.	.	.	12ff#\J	.
!!LO:LB:g=original
=34	=34	=34	=34	=34	=34	=34	=34
4B 4E 4GG\	.	4r	.	2r	.	12gg\L	.
.	.	.	.	.	.	12ee\	.
.	.	.	.	.	.	12ff#\J	.
4r	.	4b 4d 4G\	.	.	.	12gg\L	.
.	.	.	.	.	.	12ff#\	.
.	.	.	.	.	.	12ee\J	.
4B 4D 4GG\	.	2r	.	4r	.	12gg\L	.
.	.	.	.	.	.	12ff#\	.
.	.	.	.	.	.	12gg\J	.
4r	.	.	.	4dd 4f# 4A/	.	12aa\L	.
.	.	.	.	.	.	12bb\	.
.	.	.	.	.	.	12ccc\J	.
=35	=35	=35	=35	=35	=35	=35	=35
4B 4D 4GG\	.	4r	.	2r	.	12ddd\L	.
.	.	.	.	.	.	12eee\	.
.	.	.	.	.	.	12ddd\J	.
4r	.	4b 4e 4G\	.	.	.	12bb\L	.
.	.	.	.	.	.	12aa\	.
.	.	.	.	.	.	12gg\J	.
4B 4D 4GG\	.	2r	.	4r	.	12bb\L	.
.	.	.	.	.	.	12ccc\	.
.	.	.	.	.	.	12bb\J	.
4r	.	.	.	4dd 4f# 4A/	.	12aa\L	.
.	.	.	.	.	.	12gg\	.
.	.	.	.	.	.	12ff#\J	.
=36	=36	=36	=36	=36	=36	=36	=36
4B 4D 4GG\	.	4g 4B 4D\	.	4b 4d 4G/	.	12gg\L	.
!	!	!	!	!	!	!	!LO:HP:b
.	.	.	.	.	.	12ee\	>
.	.	.	.	.	.	12ff#\J	.
4r	.	4r	.	4r	.	12gg\L	.
.	.	.	.	.	.	12ee\	.
.	.	.	.	.	.	12dd\J	.
2r	.	2r	.	2r	.	12b\L	.
.	.	.	.	.	.	12ee\	.
.	.	.	.	.	.	12dd\J	.
.	.	.	.	.	.	12cc/L	.
.	.	.	.	.	.	12b/	.
.	.	.	.	.	.	12a/J	]
=37	=37	=37	=37	=37	=37	=37	=37
!	!	!	!	!	!LO:DY:b:rj	!	!LO:DY:b:rj
1r	.	1r	.	12g/L	p	8g/	p
!	!	!	!	!	!LO:MO:null:mod=>	!	!
.	.	.	.	12e/	.	.	.
.	.	.	.	.	.	8r	.
.	.	.	.	12f#/J	.	.	.
.	.	.	.	12g/L	.	4r	.
.	.	.	.	12e/	.	.	.
.	.	.	.	12d/J	.	.	.
.	.	.	.	12B/L	.	2r	.
.	.	.	.	12e/	.	.	.
.	.	.	.	12d/J	.	.	.
.	.	.	.	12c/L	.	.	.
.	.	.	.	12B/	.	.	.
!	!	!	!	!	!LO:MO:null:mod=]	!	!
.	.	.	.	12A/J	.	.	.
!!LO:LB:g=original
=38||	=38||	=38||	=38||	=38||	=38||	=38||	=38||
*>A1	*	*>A1	*	*>A1	*	*>A1	*
!	!	!	!	!	!	!LO:TX:a:i:t=Ia volta	!
1r	.	1r	.	12G/L	.	1r	.
!	!	!	!	!	!LO:HP:b	!	!
.	.	.	.	12e/	<	.	.
.	.	.	.	12f#/J	.	.	.
.	.	.	.	12g/L	.	.	.
.	.	.	.	12f#/	.	.	.
.	.	.	.	12e/J	.	.	.
.	.	.	.	12g/L	.	.	.
.	.	.	.	12f#/	[	.	.
.	.	.	.	12e/J	.	.	.
!	!	!	!	!	!LO:HP:b	!	!
.	.	.	.	12g/L	>	.	.
.	.	.	.	12f#/	.	.	.
.	.	.	.	12e/J	.	.	.
=39	=39	=39	=39	=39	=39	=39	=39
1r	.	1r	.	12g/L	]	2r	.
!	!	!	!	!	!LO:HP:b:t=crescendo	!	!
.	.	.	.	12e/	<	.	.
.	.	.	.	12f#/J	.	.	.
.	.	.	.	12g/L	.	.	.
.	.	.	.	12f#/	.	.	.
.	.	.	.	12e/J	.	.	.
.	.	.	.	12g/L	.	4r	.
.	.	.	.	12a/	.	.	.
.	.	.	.	12g/J	.	.	.
.	.	.	.	12f#/L	.	32r	.
.	.	.	.	.	.	(>32b\LLL	.
.	.	.	.	.	.	32cc\	.
.	.	.	.	12g/	.	.	.
.	.	.	.	.	.	32dd\	.
.	.	.	.	.	.	32ee\	.
.	.	.	.	.	.	32ff#\	.
!	!	!	!	!	!LO:MO:null:mod=[	!	!
.	.	.	.	12f#/J	.	.	.
.	.	.	.	.	.	32gg\	.
!	!	!	!	!	!	!	!LO:DY:b
.	.	.	.	.	.	32aa\JJJ	f
=40	=40	=40	=40	=40	=40	=40	=40
!	!LO:DY:b:rj	!	!	!	!LO:DY:b	!	!
4G 4BB 4EE\	f	4r	.	12g/L	f	4bb\)	.
.	.	.	.	12a/	.	.	.
.	.	.	.	12b/J	.	.	.
.	.	.	.	.	.	(<16qqaa/LL	.
.	.	.	.	.	.	16qqbb/JJ)	.
!	!	!	!LO:DY:b:rj	!	!	!	!
4r	.	4a 4B 4E\	f	12cc\L	.	(>8.aa\L	.
.	.	.	.	12dd\	.	.	.
.	.	.	.	12cc\J	.	.	.
.	.	.	.	.	.	16ff#'>\Jk)	.
4G 4BB 4EE\	.	4r	.	12b\L	.	4gg\	.
.	.	.	.	12cc\	.	.	.
.	.	.	.	12b\J	.	.	.
.	.	.	.	.	.	(<16qqff#/LL	.
.	.	.	.	.	.	16qqgg/JJ	.
4r	.	4a 4B 4E\	.	12a/L	.	(>8.ff#\L)	.
.	.	.	.	12g/	.	.	.
.	.	.	.	12f#/J	.	.	.
.	.	.	.	.	.	16dd'>\Jk)	.
=41:|!	=41:|!	=41:|!	=41:|!	=41:|!	=41:|!	=41:|!	=41:|!
*>B	*	*>B	*	*>B	*	*>B	*
!	!	!	!	!	!	!LO:MO:null:mod=!LO&colon;TX&colon;a&colon;i&colon;t=IIa volta	!
!	!	!	!LO:DY:b	!	!	!	!
1r	.	12G/L	p	8G/	.	1r	.
.	.	12F#/	.	.	.	.	.
.	.	.	.	8r	.	.	.
.	.	12G/J	.	.	.	.	.
.	.	12D/L	.	4r	.	.	.
.	.	12E/	.	.	.	.	.
.	.	12F#/J	.	.	.	.	.
.	.	12G/L	.	2r	.	.	.
.	.	12F#/	.	.	.	.	.
.	.	12G/J	.	.	.	.	.
.	.	12F#/L	.	.	.	.	.
.	.	12E/	.	.	.	.	.
.	.	12D/J	.	.	.	.	.
=42	=42	=42	=42	=42	=42	=42	=42
1r	.	12G/L	.	1r	.	1r	.
.	.	12F#/	.	.	.	.	.
.	.	12E/J	.	.	.	.	.
.	.	12D/L	.	.	.	.	.
.	.	12E/	.	.	.	.	.
.	.	12D/J	.	.	.	.	.
.	.	12E/L	.	.	.	.	.
.	.	12F#/	.	.	.	.	.
.	.	12E/J	.	.	.	.	.
.	.	12D/L	.	.	.	.	.
.	.	12E/	.	.	.	.	.
.	.	12D/J	.	.	.	.	.
!!LO:PB:g=original
=43	=43	=43	=43	=43	=43	=43	=43
4r	.	12E/L	.	1r	.	1r	.
.	.	12F#/	.	.	.	.	.
.	.	12E/J	.	.	.	.	.
*Xtuplet	*	*	*	*	*	*	*
!	!LO:DY:b:rj	!	!	!	!	!	!
12BB/L	p	8D/	.	.	.	.	.
12C/	.	.	.	.	.	.	.
.	.	8r	.	.	.	.	.
12BB/J	.	.	.	.	.	.	.
12AA/L	.	2r	.	.	.	.	.
12BB/	.	.	.	.	.	.	.
12AA/J	.	.	.	.	.	.	.
12GG/L	.	.	.	.	.	.	.
12AA/	.	.	.	.	.	.	.
12GG/J	.	.	.	.	.	.	.
=44	=44	=44	=44	=44	=44	=44	=44
12GG/L	.	4r	.	1r	.	1r	.
12AA/	.	.	.	.	.	.	.
12GG/J	.	.	.	.	.	.	.
!	!	!	!LO:DY:b:rj	!	!	!	!
8GG/	.	12D/L	p	.	.	.	.
.	.	12E-X/	.	.	.	.	.
8r	.	.	.	.	.	.	.
.	.	12D/J	.	.	.	.	.
12GG/L	.	8D/	.	.	.	.	.
12AA/	.	.	.	.	.	.	.
.	.	8r	.	.	.	.	.
12GG/J	.	.	.	.	.	.	.
8GG/	.	12D/L	.	.	.	.	.
.	.	12E-/	.	.	.	.	.
8r	.	.	.	.	.	.	.
.	.	12D/J	.	.	.	.	.
=45	=45	=45	=45	=45	=45	=45	=45
12GG/L	.	8D/	.	1r	.	1r	.
12AA/	.	.	.	.	.	.	.
.	.	8r	.	.	.	.	.
12GG/J	.	.	.	.	.	.	.
12DD/L	.	4r	.	.	.	.	.
12EE/	.	.	.	.	.	.	.
12DD/J	.	.	.	.	.	.	.
12EE-X/L	.	2r	.	.	.	.	.
12FFn/	.	.	.	.	.	.	.
12EE-/J	.	.	.	.	.	.	.
12DD/L	.	.	.	.	.	.	.
12EEn/	.	.	.	.	.	.	.
12DD/J	.	.	.	.	.	.	.
=46	=46	=46	=46	=46	=46	=46	=46
12EE-X/L	.	1r	.	1r	.	1r	.
!	!LO:HP:b	!	!	!	!	!	!
12FFn/	<	.	.	.	.	.	.
12EE-/J	.	.	.	.	.	.	.
12DD/L	.	.	.	.	.	.	.
12EE-/	.	.	.	.	.	.	.
12DD/J	.	.	.	.	.	.	.
12DD/L	.	.	.	.	.	.	.
12EE-/	.	.	.	.	.	.	.
12DD/J	.	.	.	.	.	.	.
12DD/L	[	.	.	.	.	.	.
12EE-/	.	.	.	.	.	.	.
12DD/J	.	.	.	.	.	.	.
!!LO:LB:g=original
=47	=47	=47	=47	=47	=47	=47	=47
!	!LO:HP:b	!	!	!	!	!	!
12EE-X/L	>	1r	.	1r	.	1r	.
12DD/	.	.	.	.	.	.	.
12EE-/J	.	.	.	.	.	.	.
12DD/L	.	.	.	.	.	.	.
12EE-/	.	.	.	.	.	.	.
12DD/J	.	.	.	.	.	.	.
12EE-/L	.	.	.	.	.	.	.
12DD/	.	.	.	.	.	.	.
12EE-/J	.	.	.	.	.	.	.
12DD/L	.	.	.	.	.	.	.
12EE-/	.	.	.	.	.	.	.
12DD/J	]	.	.	.	.	.	.
*kcancel	*	*kcancel	*	*kcancel	*	*kcancel	*
=48||	=48||	=48||	=48||	=48||	=48||	=48||	=48||
*k[b-e-a-]	*	*k[b-e-a-]	*	*k[b-e-a-]	*	*k[b-e-a-]	*
*E-:	*	*E-:	*	*E-:	*	*E-:	*
!	!LO:DY:b:rj	!	!	!	!LO:DY:b:rj	!	!LO:DY:b:rj
12EE-/L	p	1r	.	4g'</	p	4b-'</	p
12DD/	.	.	.	.	.	.	.
12EE-/J	.	.	.	.	.	.	.
12DD/L	.	.	.	8g'</L	.	8b-'</L	.
12EE-/	.	.	.	.	.	.	.
.	.	.	.	8g'</J	.	8b-'</J	.
12DD/J	.	.	.	.	.	.	.
12EE-/L	.	.	.	4g'</	.	4b-'</	.
12DD/	.	.	.	.	.	.	.
12EE-/J	.	.	.	.	.	.	.
12DD/L	.	.	.	4e-'</	.	4g'</	.
12EE-/	.	.	.	.	.	.	.
12DD/J	.	.	.	.	.	.	.
=49	=49	=49	=49	=49	=49	=49	=49
*rep	*	*	*	*	*	*	*
12EE-/L	.	1r	.	4c'</	.	4e-'</	.
12DD/	.	.	.	.	.	.	.
12EE-/J	.	.	.	.	.	.	.
12DD/L	.	.	.	4B-'</	.	4g'</	.
12EE-/	.	.	.	.	.	.	.
12DD/J	.	.	.	.	.	.	.
12EE-/L	.	.	.	4A-'</	.	4f'</	.
12DD/	.	.	.	.	.	.	.
12EE-/J	.	.	.	.	.	.	.
12DD/L	.	.	.	4G'</	.	4B-'</	.
12EE-/	.	.	.	.	.	.	.
12DD/J	.	.	.	.	.	.	.
*Xrep	*	*	*	*	*	*	*
=50	=50	=50	=50	=50	=50	=50	=50
*rep	*	*	*	*	*	*	*
12EE-/L	.	1r	.	4G'</	.	4b-'</	.
12DD/	.	.	.	.	.	.	.
12EE-/J	.	.	.	.	.	.	.
12DD/L	.	.	.	8B-'</L	.	8b-'</L	.
12EE-/	.	.	.	.	.	.	.
.	.	.	.	8c'</J	.	8b-'</J	.
12DD/J	.	.	.	.	.	.	.
12EE-/L	.	.	.	4d'</	.	4b-'</	.
12DD/	.	.	.	.	.	.	.
12EE-/J	.	.	.	.	.	.	.
12DD/L	.	.	.	4e-'</	.	4g'</	.
12EE-/	.	.	.	.	.	.	.
12DD/J	.	.	.	.	.	.	.
*Xrep	*	*	*	*	*	*	*
=51	=51	=51	=51	=51	=51	=51	=51
*rep	*	*	*	*	*	*	*
12EE-/L	.	1r	.	4c'</	.	4e-'</	.
12DD/	.	.	.	.	.	.	.
12EE-/J	.	.	.	.	.	.	.
12DD/L	.	.	.	4B-'</	.	4g'</	.
12EE-/	.	.	.	.	.	.	.
12DD/J	.	.	.	.	.	.	.
12EE-/L	.	.	.	4d'</	.	4f'</	.
12DD/	.	.	.	.	.	.	.
12EE-/J	.	.	.	.	.	.	.
12DD/L	.	.	.	4r	.	4r	.
12EE-/	.	.	.	.	.	.	.
12DD/J	.	.	.	.	.	.	.
*Xrep	*	*	*	*	*	*	*
!!LO:LB:g=original
=52	=52	=52	=52	=52	=52	=52	=52
!	!LO:DY:b:rj	!	!LO:DY:b	!	!	!	!LO:DY:b:rj
12CC/L	pp	4e-'>\	pp	1r	.	4g'</	pp
12CC/	.	.	.	.	.	.	.
12CC/J	.	.	.	.	.	.	.
*tremolo	*	*	*	*	*	*	*
!LO:TX:a:t=P:global:problem=w źródle ćwierćnuty z kropkami (dot. ósemek w tremolu)	!	!	!	!	!	!	!
12CC/L	.	8e-'>\L	.	.	.	8g'</L	.
12CC/	.	.	.	.	.	.	.
.	.	8e-'>\J	.	.	.	8g'</J	.
12CC/J	.	.	.	.	.	.	.
12CC/L	.	4e-'>\	.	.	.	4g'</	.
12CC/	.	.	.	.	.	.	.
12CC/J	.	.	.	.	.	.	.
12CC/L	.	4c'>\	.	.	.	4e-'</	.
12CC/	.	.	.	.	.	.	.
12CC/J	.	.	.	.	.	.	.
*Xtremolo	*	*	*	*	*	*	*
=53	=53	=53	=53	=53	=53	=53	=53
*rep	*	*	*	*	*	*	*
12CC/L	.	4A-'</	.	1r	.	4c'</	.
12CC/	.	.	.	.	.	.	.
12CC/J	.	.	.	.	.	.	.
*tremolo	*	*	*	*	*	*	*
12CC/L	.	4G'</	.	.	.	4e-'</	.
12CC/	.	.	.	.	.	.	.
12CC/J	.	.	.	.	.	.	.
12CC/L	.	4F'</	.	.	.	4d'</	.
12CC/	.	.	.	.	.	.	.
12CC/J	.	.	.	.	.	.	.
12CC/L	.	4E-'</	.	.	.	4G'</	.
12CC/	.	.	.	.	.	.	.
12CC/J	.	.	.	.	.	.	.
*Xtremolo	*	*	*	*	*	*	*
*Xrep	*	*	*	*	*	*	*
=54	=54	=54	=54	=54	=54	=54	=54
*rep	*	*	*	*	*	*	*
12CC/L	.	4D'</	.	1r	.	4f'</	.
12CC/	.	.	.	.	.	.	.
12CC/J	.	.	.	.	.	.	.
*tremolo	*	*	*	*	*	*	*
12CC/L	.	8A-'</L	.	.	.	8f'</L	.
12CC/	.	.	.	.	.	.	.
.	.	8G'</J	.	.	.	8f'</J	.
12CC/J	.	.	.	.	.	.	.
12CC/L	.	4F'</	.	.	.	4d'</	.
12CC/	.	.	.	.	.	.	.
12CC/J	.	.	.	.	.	.	.
12CC/L	.	4D'</	.	.	.	4Bn'</	.
12CC/	.	.	.	.	.	.	.
12CC/J	.	.	.	.	.	.	.
*Xrep	*	*	*	*	*	*	*
=55	=55	=55	=55	=55	=55	=55	=55
*tremolo	*	*	*	*	*	*	*
12CC/L	.	4E-'</	.	1r	.	4c'</	.
12CC/	.	.	.	.	.	.	.
12CC/J	.	.	.	.	.	.	.
12CC/L	.	4F'</	.	.	.	4d'</	.
12CC/	.	.	.	.	.	.	.
12CC/J	.	.	.	.	.	.	.
12CC/L	.	4G'</	.	.	.	4e-'</	.
12CC/	.	.	.	.	.	.	.
12CC/J	.	.	.	.	.	.	.
12DD/L	.	4r	.	.	.	4r	.
12DD/	.	.	.	.	.	.	.
12DD/J	.	.	.	.	.	.	.
!!LO:REH:t=E
=56	=56	=56	=56	=56	=56	=56	=56
!LO:TX:b:B:t=E:color=blue:mod=	!	!	!	!	!	!	!
!LO:TX:b:i:t=sempre	!	!	!LO:DY:b:rj	!	!	!LO:TX:a:B:t=E:color=blue:mod=	!
12EE-/L	.	12C/L	pp	2r	.	1r	.
12EE-/	.	12C/	.	.	.	.	.
12EE-/J	.	12C/J	.	.	.	.	.
*	*	*tremolo	*	*	*	*	*
!	!	!LO:TX:a:t=P:problem=ćwierćnuta bez kropki (wyjątek)	!	!	!	!	!
12FF/L	.	12D/L	.	.	.	.	.
12FF/	.	12D/	.	.	.	.	.
12FF/J	.	12D/J	.	.	.	.	.
!	!LO:DY:b:rj	!	!	!	!LO:DY:b:rj	!	!
12GG/L	pp	12E-/L	.	12c/L	pp	.	.
12GG/	.	12E-/	.	12c/	.	.	.
12GG/J	.	12E-/J	.	12c/J	.	.	.
*	*	*	*	*tremolo	*	*	*
12AA-/L	.	12F/L	.	12d/L	.	.	.
12AA-/	.	12F/	.	12d/	.	.	.
12AA-/J	.	12F/J	.	12d/J	.	.	.
=57	=57	=57	=57	=57	=57	=57	=57
12BBn/L	.	12G/L	.	12e-/L	.	2r	.
12BB/	.	12G/	.	12e-/	.	.	.
12BB/J	.	12G/J	.	12e-/J	.	.	.
8BB/	.	8G/	.	8e-/	.	.	.
8r	.	8r	.	8r	.	.	.
12C/L	.	12A-/L	.	12e-/L	.	4r	.
12C/	.	12A-/	.	12e-/	.	.	.
12C/J	.	12A-/J	.	12e-/J	.	.	.
*Xtremolo	*	*Xtremolo	*	*Xtremolo	*	*	*
8C/	.	8A-/	.	8e-/	.	8.r	.
8r	.	8r	.	8r	.	.	.
*	*	*	*	*	*	*tuplet	*
!	!	!	!	!	!	!LO:TUP:a	!LO:DY:b:rj
.	.	.	.	.	.	(<48e-/LLL	pp
.	.	.	.	.	.	48f/	.
.	.	.	.	.	.	48g/JJJ	.
!!LO:LB:g=original
=58	=58	=58	=58	=58	=58	=58	=58
1r	.	1r	.	1r	.	4a-/)	.
.	.	.	.	.	.	(<16qqg/LL	.
.	.	.	.	.	.	16qqa-/JJ	.
.	.	.	.	.	.	8.g/L)	.
.	.	.	.	.	.	16e-/Jk	.
.	.	.	.	.	.	4f/	.
.	.	.	.	.	.	(<16qqe-/LL	.
.	.	.	.	.	.	16qqf/JJ	.
.	.	.	.	.	.	8.e-/L)	.
.	.	.	.	.	.	16c/Jk	.
=59	=59	=59	=59	=59	=59	=59	=59
*tremolo	*	*	*	*	*	*	*
!	!LO:DY:b:rj	!	!	!	!	!	!
12DD/L	pp	1r	.	1r	.	4Bn/	.
12DD/	.	.	.	.	.	.	.
12DD/J	.	.	.	.	.	.	.
12DD/L	.	.	.	.	.	4r	.
12DD/	.	.	.	.	.	.	.
12DD/J	.	.	.	.	.	.	.
12DD/L	.	.	.	.	.	2r	.
12DD/	.	.	.	.	.	.	.
12DD/J	.	.	.	.	.	.	.
12EE-/L	.	.	.	.	.	.	.
12EE-/	.	.	.	.	.	.	.
12EE-/J	.	.	.	.	.	.	.
=60	=60	=60	=60	=60	=60	=60	=60
*	*	*tremolo	*	*	*	*	*
!	!	!	!LO:DY:b:rj	!	!	!	!
12FF/L	.	12D/L	pp	2r	.	1r	.
12FF/	.	12D/	.	.	.	.	.
12FF/J	.	12D/J	.	.	.	.	.
12GG/L	.	12E-/L	.	.	.	.	.
12GG/	.	12E-/	.	.	.	.	.
12GG/J	.	12E-/J	.	.	.	.	.
*	*	*	*	*tremolo	*	*	*
!	!	!	!	!	!LO:DY:b:rj	!	!
12AA-/L	.	12F/L	.	12d/L	pp	.	.
12AA-/	.	12F/	.	12d/	.	.	.
12AA-/J	.	12F/J	.	12d/J	.	.	.
12BBn/L	.	12G/L	.	12e-/L	.	.	.
12BB/	.	12G/	.	12e-/	.	.	.
12BB/J	.	12G/J	.	12e-/J	.	.	.
=61	=61	=61	=61	=61	=61	=61	=61
12C/L	.	12A-/L	.	12f/L	.	2r	.
12C/	.	12A-/	.	12f/	.	.	.
12C/J	.	12A-/J	.	12f/J	.	.	.
8D/	.	8Bn/	.	8f/	.	.	.
8r	.	8r	.	8r	.	.	.
12E-\L	.	12B/L	.	12g/L	.	4r	.
12E-\	.	12B/	.	12g/	.	.	.
12E-\J	.	12B/J	.	12g/J	.	.	.
*Xtremolo	*	*Xtremolo	*	*Xtremolo	*	*	*
8E-\	.	8c/	.	8g/	.	8.r	.
8r	.	8r	.	8r	.	.	.
!	!	!	!	!	!	!LO:TUP:a	!LO:DY:b:rj
.	.	.	.	.	.	(<48g/LLL	pp
.	.	.	.	.	.	48a-/	.
.	.	.	.	.	.	48b-/JJJ	.
=62	=62	=62	=62	=62	=62	=62	=62
1r	.	1r	.	1r	.	4cc\)	.
.	.	.	.	.	.	(<16qqb-/LL	.
.	.	.	.	.	.	16qqcc/JJ	.
.	.	.	.	.	.	8.b-/L)	.
.	.	.	.	.	.	16g/Jk	.
.	.	.	.	.	.	4a-/	.
.	.	.	.	.	.	(<16qqg/LL	.
.	.	.	.	.	.	16qqa-/JJ	.
.	.	.	.	.	.	8.g/L)	.
.	.	.	.	.	.	16e-/Jk	.
!!LO:PB:g=original
!!LO:REH:t=F
=63	=63	=63	=63	=63	=63	=63	=63
*tremolo	*	*	*	*	*	*	*
!LO:TX:b:B:t=F:color=blue:mod=	!LO:DY:b:rj	!	!	!	!	!LO:TX:a:B:t=F:color=blue:mod=	!
12EE-/L	pp	2r	.	1r	.	4c/	.
12EE-/	.	.	.	.	.	.	.
12EE-/J	.	.	.	.	.	.	.
12FF/L	.	.	.	.	.	4r	.
12FF/	.	.	.	.	.	.	.
12FF/J	.	.	.	.	.	.	.
*	*	*tremolo	*	*	*	*	*
!	!	!	!LO:DY:b:rj	!	!	!	!
12GG/L	.	12E-/L	pp	.	.	2r	.
12GG/	.	12E-/	.	.	.	.	.
12GG/J	.	12E-/J	.	.	.	.	.
12AA-/L	.	12F/L	.	.	.	.	.
12AA-/	.	12F/	.	.	.	.	.
12AA-/J	.	12F/J	.	.	.	.	.
=64	=64	=64	=64	=64	=64	=64	=64
*	*	*	*	*tremolo	*	*	*
!	!	!	!	!	!LO:DY:b:rj	!	!
12BBn/L	.	12G/L	.	12e-/L	pp	1r	.
12BB/	.	12G/	.	12e-/	.	.	.
12BB/J	.	12G/J	.	12e-/J	.	.	.
12C/L	.	12A-/L	.	12f/L	.	.	.
12C/	.	12A-/	.	12f/	.	.	.
12C/J	.	12A-/J	.	12f/J	.	.	.
12D\L	.	12Bn/L	.	12g/L	.	.	.
12D\	.	12B/	.	12g/	.	.	.
12D\J	.	12B/J	.	12g/J	.	.	.
12En\L	.	12c/L	.	12a-/L	.	.	.
12E\	.	12c/	.	12a-/	.	.	.
12E\J	.	12c/J	.	12a-/J	.	.	.
=65	=65	=65	=65	=65	=65	=65	=65
12F\L	.	12d-X\L	.	12b-/L	.	2r	.
12F\	.	12d-\	.	12b-/	.	.	.
12F\J	.	12d-\J	.	12b-/J	.	.	.
8En\	.	8c\	.	8b-/	.	.	.
8r	.	8r	.	8r	.	.	.
12FF/L	.	12D-X/L	.	12B-/L	.	4r	.
12FF/	.	12D-/	.	12B-/	.	.	.
12FF/J	.	12D-/J	.	12B-/J	.	.	.
8EEn/	.	8C/	.	8B-/	.	8r	.
!	!	!	!	!	!	!	!LO:DY:b
8r	.	8r	.	8r	.	(>32g/LLL	p
!	!	!	!	!	!	!	!LO:HP:b
.	.	.	.	.	.	32a-/	<
.	.	.	.	.	.	32b-/	.
.	.	.	.	.	.	32cc/JJJ	[[
=66	=66	=66	=66	=66	=66	=66	=66
!	!	!	!	!	!	!	!LO:HP:b
2r	.	2r	.	2r	.	4dd-X\	>
.	.	.	.	.	.	8cc\)	]
.	.	.	.	.	.	8r	.
!	!LO:DY:b:rj	!	!LO:DY:b:rj	!	!LO:DY:b:rj	!	!
12FF/L	pp	(<4D-X^>/	pp	12B-/L	pp	4r	.
12FF/	.	.	.	12B-/	.	.	.
12FF/J	.	.	.	12B-/J	.	.	.
8EEn/	.	8C/)	.	8B-/	.	8r	.
!	!	!	!	!	!	!	!LO:HP:b
8r	.	8r	.	8r	.	(>32g/LLL	<
.	.	.	.	.	.	32a-/	.
.	.	.	.	.	.	32b-/	.
.	.	.	.	.	.	32cc/JJJ	[[
=67	=67	=67	=67	=67	=67	=67	=67
!	!	!	!	!	!	!	!LO:HP:b
2r	.	2r	.	2r	.	4dd-X\	>
.	.	.	.	.	.	8cc\)	]
.	.	.	.	.	.	8r	.
!	!LO:DY:b:rj	!	!LO:DY:b:rj	!	!LO:DY:b:rj	!	!
12FF/L	pp	(<4D-X^>/	pp	12B-/L	pp	4r	.
12FF/	.	.	.	12B-/	.	.	.
12FF/J	.	.	.	12B-/J	.	.	.
*Xtremolo	*	*Xtremolo	*	*tremolo	*	*	*
8EEn/	.	8C/)	.	8B-/	.	8r	.
!	!	!	!	!	!	!	!LO:DY:b
8r	.	8r	.	8r	.	(>32g/LLL	p
.	.	.	.	.	.	32a-/	.
.	.	.	.	.	.	32b-/	.
.	.	.	.	.	.	32cc/JJJ	.
=68	=68	=68	=68	=68	=68	=68	=68
1r	.	1r	.	1r	.	2dd-X\	.
.	.	.	.	.	.	2cc\)	.
!!LO:LB:g=original
=69	=69	=69	=69	=69	=69	=69	=69
!	!	!	!	!	!	!	!LO:HP:b
1r	.	1r	.	1r	.	(<2b-/	>
.	.	.	.	.	.	4g/	.
.	.	.	.	.	.	4f/	.
=70	=70	=70	=70	=70	=70	=70	=70
1r	.	1r	.	1r	.	2en/)	.
!	!	!	!	!	!	!	!LO:DY:b
.	.	.	.	.	.	(<[<2d-X/	] pp
=71||	=71||	=71||	=71||	=71||	=71||	=71||	=71||
!!!OMD:
!!!OMD-mod: un pocchettino meno mosso
!LO:TX:a:i:t=un pocchettino meno mosso:mod=	!	!LO:TX:a:i:t=un pocchettino meno mosso:mod=	!	!LO:TX:a:i:t=un pocchettino meno mosso:mod=	!	!LO:TX:a:i:t=un pocchettino meno mosso:mod=	!
2r	.	1r	.	1r	.	2d-/]	.
4r	.	.	.	.	.	[<2c/	.
*tuplet	*	*	*	*	*	*	*
!LO:MO:null:mod=!LO&colon;TX&colon;a&colon;i&colon;t=pizz.	!	!	!	!	!	!	!
!LO:TX:a:t=pizz	!	!	!	!	!	!	!
!LO:TUP:a	!LO:DY:b:rj	!	!	!	!	!	!
12CC/L	p	.	.	.	.	.	.
12DD/	.	.	.	.	.	.	.
12EEn/J	.	.	.	.	.	.	.
=72	=72	=72	=72	=72	=72	=72	=72
4FF/	.	1r	.	1r	.	2c/])	.
4AA-/	.	.	.	.	.	.	.
4FF/	.	.	.	.	.	[>2cc\	.
4AA-/	.	.	.	.	.	.	.
=73	=73	=73	=73	=73	=73	=73	=73
4FF/	.	1r	.	1r	.	2cc\]	.
4GG/	.	.	.	.	.	.	.
4EEn/	.	.	.	.	.	[>2b-\	.
4CC/	.	.	.	.	.	.	.
=74	=74	=74	=74	=74	=74	=74	=74
4C/	.	1r	.	1r	.	2b-\]	.
8C/L	.	.	.	.	.	.	.
8C/J	.	.	.	.	.	.	.
4C/	.	.	.	.	.	[<2a-/	.
4AA-/	.	.	.	.	.	.	.
=75	=75	=75	=75	=75	=75	=75	=75
4FF/	.	2r	.	1r	.	2a-/]	.
4AA-/	.	.	.	.	.	.	.
4GG/	.	4r	.	.	.	(<4Bn/	.
*	*	*tuplet	*	*	*	*	*
!	!	!LO:MO:null:mod=!LO&colon;TX&colon;a&colon;i&colon;t=pizz.	!	!	!	!	!
!	!	!LO:TX:a:t=pizz	!	!	!	!	!
!	!	!LO:TUP:a	!LO:DY:b:rj	!	!	!	!
4FF/	.	12G/L	p	.	.	4g/)	.
.	.	12An/	.	.	.	.	.
.	.	12Bn/J	.	.	.	.	.
=76	=76	=76	=76	=76	=76	=76	=76
4EE-/	.	4c\	.	1ryy	.	(>2g/	.
8DD/L	.	4e-\	.	.	.	.	.
8CC/J	.	.	.	.	.	.	.
8r	.	4c\	.	.	.	2cc\)	.
8GG/L	.	.	.	.	.	.	.
8C/	.	4e-\	.	.	.	.	.
8BB-/J	.	.	.	.	.	.	.
!!LO:LB:g=original
=77	=77	=77	=77	=77	=77	=77	=77
4AA-/	.	4c\	.	1r	.	(>2f/	.
8GG/L	.	4d\	.	.	.	.	.
8FF/J	.	.	.	.	.	.	.
8r	.	4Bn/	.	.	.	2dd\)	.
8DD/L	.	.	.	.	.	.	.
!	!	!	!	!	!	!LO:MO:null:mod=!LO&colon;TX&colon;b&colon;i&colon;t=sempre pp	!
!	!	!	!	!	!	!LO:TX:b:i:t=sempre	!
8GG/	.	4G/	.	.	.	.	.
8FF/J	.	.	.	.	.	.	.
=78	=78	=78	=78	=78	=78	=78	=78
!LO:MO:null:mod=!LO&colon;TX&colon;b&colon;i&colon;t=sempre p	!	!	!	!	!	!	!
!LO:TX:b:i:t=sempre	!	!	!	!	!	!	!
8EE-/L	.	4g\	.	1r	.	(>2cc\	.
8FF/	.	.	.	.	.	.	.
8GG/	.	8g\L	.	.	.	.	.
8AAn/J	.	8g\J	.	.	.	.	.
!	!	!	!	!	!	!	!LO:DY:b
8BB-/L	.	4g\	.	.	.	2ee-\	pp
8BBn/	.	.	.	.	.	.	.
8C/	.	4e-\	.	.	.	.	.
!	!LO:DY:b	!	!	!	!	!	!
8D/J	p	.	.	.	.	.	.
=79	=79	=79	=79	=79	=79	=79	=79
8E-\L	.	4c\	.	2r	.	2gg\)	.
8A-\	.	.	.	.	.	.	.
8G\	.	4d-X\	.	.	.	.	.
8F\J	.	.	.	.	.	.	.
8En\L	.	4c/	.	4r	.	(>4b-\	.
8C\	.	.	.	.	.	.	.
*	*	*	*	*tuplet	*	*	*
!	!	!	!	!LO:MO:null:mod=!LO&colon;TX&colon;a&colon;i&colon;t=pizz.	!	!	!
!	!	!	!	!LO:TX:a:t=pizz	!LO:DY:b:rj	!	!
!	!	!	!	!LO:TUP:a	!	!	!
8D\	.	4B-/	.	12c/L	p	[>4gg\	.
.	.	.	.	12d/	.	.	.
8C\J	.	.	.	.	.	.	.
.	.	.	.	12en/J	.	.	.
=80	=80	=80	=80	=80	=80	=80	=80
!	!	!LO:MO:null:mod=!LO&colon;TX&colon;b&colon;i&colon;t=sempre p	!	!	!	!	!
!	!	!LO:TX:b:i:t=sempre	!	!	!	!	!
4F\	.	4A-/	.	4f/	.	4gg\])	.
8r	.	8G/L	.	4a-/	.	2cc\	.
8FF/	.	8F/J	.	.	.	.	.
4AA-/	.	8r	.	4f/	.	.	.
.	.	8c\L	.	.	.	.	.
8r	.	8f\	.	4a-/	.	[>4dd-X\	.
!	!	!	!LO:DY:b	!	!	!	!
8C/	.	8e-\J	p	.	.	.	.
=81	=81	=81	=81	=81	=81	=81	=81
4BB-/	.	4d-X\	.	4f/	.	4dd-\]	.
8r	.	8c/L	.	4g/	.	2b-\	.
8D-X/	.	8B-/J	.	.	.	.	.
4C/	.	8r	.	4en/	.	.	.
.	.	8G/L	.	.	.	.	.
8r	.	8c/	.	4c/	.	(>4cc\	.
8En\	.	8B-/J	.	.	.	.	.
=82	=82	=82	=82	=82	=82	=82	=82
4F\	.	8A-/L	.	4cc\	.	4ff\)	.
.	.	8B-/	.	.	.	.	.
*	*	*	*	*Xtremolo	*	*	*
8r	.	8c/	.	8cc\L	.	(<4f/	.
8BB-/	.	8dn/J	.	8cc\J	.	.	.
4C/	.	8e-\L	.	4cc\	.	4a-/	.
.	.	8en\	.	.	.	.	.
8r	.	8f\	.	4a-/	.	4cc\)	.
8FF/	.	8e-X\J	.	.	.	.	.
!!LO:LB:g=original
=83	=83	=83	=83	=83	=83	=83	=83
4GG/	.	8d-X\L	.	4f/	.	(>4b-\	.
.	.	8e-\	.	.	.	.	.
8r	.	8d-\	.	4a-/	.	4ff\	.
8AA-/	.	8c\J	.	.	.	.	.
4D-X/	.	8B-\L	.	4g/	.	4ee-\	.
.	.	8c\	.	.	.	.	.
8r	.	8d-\	.	4f/	.	4dd-X\)	.
8AA-/	.	8c\J	.	.	.	.	.
=84	=84	=84	=84	=84	=84	=84	=84
4BB-/	.	8B-\L	.	4dd-X\	.	(>4bb-\	.
.	.	8f\	.	.	.	.	.
8r	.	8b-\	.	8dd-\L	.	4ff\	.
8F\	.	8a-\J	.	8dd-\J	.	.	.
4E-\	.	8g\L	.	4dd-\	.	4gg\	.
.	.	8a-\	.	.	.	.	.
4r	.	8g\	.	4b-\	.	4bb-\	.
.	.	8f\J	.	.	.	.	.
=85	=85	=85	=85	=85	=85	=85	=85
2r	.	8en\L	.	4g/	.	4ddd-X\)	.
.	.	8e-X\	.	.	.	.	.
.	.	8dn\	.	4b-/	.	(>4gg\	.
.	.	8d-X\J	.	.	.	.	.
4r	.	8c/L	.	4a-/	.	4aa-\	.
.	.	8Bn/	.	.	.	.	.
8r	.	8B-X/	.	4g/	.	4bb-\	.
16r	.	8d-/J	.	.	.	.	.
16EE-/	.	.	.	.	.	.	.
!!LO:REH:t=G
=86	=86	=86	=86	=86	=86	=86	=86
!	!	!	!	!LO:MO:null:mod=!LO&colon;TX&colon;b&colon;i&colon;t=sempre p	!	!	!
!	!	!	!	!LO:TX:b:i:t=sempre	!	!	!
4AA-/	.	4c\	.	4ee-\	.	4aa-\)	.
!LO:TX:b:B:t=G:color=blue:mod=	!	!	!	!	!	!LO:TX:a:B:t=G:color=blue:mod=	!
4C/	.	8r	.	8dd-X\L	.	4r	.
.	.	8e-\	.	8cc\J	.	.	.
4AA-/	.	4c\	.	8r	.	2r	.
!	!	!	!	!	!LO:DY:b	!	!
.	.	.	.	8ee-\L	p	.	.
4C/	.	8r	.	8aa-\	.	.	.
.	.	8e-\	.	8gg\J	.	.	.
=87	=87	=87	=87	=87	=87	=87	=87
4AA-/	.	4d-X\	.	4ff\	.	1r	.
4BB-/	.	8r	.	8ee-\L	.	.	.
.	.	8f\	.	8dd-X\J	.	.	.
4GG/	.	4e-\	.	8r	.	.	.
.	.	.	.	8b-\L	.	.	.
4EE-/	.	8r	.	8ee-\	.	.	.
.	.	8g\	.	8dd-\J	.	.	.
=88	=88	=88	=88	=88	=88	=88	=88
4E-\	.	8a-\L	.	8cc-X/L	.	1r	.
.	.	8B-\	.	8g/	.	.	.
8E-\L	.	8c-X\	.	8a-/	.	.	.
8E-\J	.	8d-X\J	.	8b-/J	.	.	.
4E-\	.	8e-\L	.	8cc-\L	.	.	.
.	.	8b-\J	.	8dd-X\J	.	.	.
4C-X/	.	4a-\	.	4ee-\	.	.	.
!!LO:PB:g=original
=89	=89	=89	=89	=89	=89	=89	=89
4BB-/	.	8r	.	8r	.	1r	.
.	.	8e-\L	.	8g-X/L	.	.	.
8G-X\L	.	8dn\	.	8b-/	.	.	.
8G-\J	.	8e-\J	.	8ccn/J	.	.	.
4G-\	.	8f\L	.	8ddn\L	.	.	.
.	.	8g-X\J	.	8ee-\J	.	.	.
4E-\	.	4b-\	.	4gg-X\	.	.	.
=90	=90	=90	=90	=90	=90	=90	=90
4AAn/	.	8r	.	8r	.	1r	.
.	.	8e-\L	.	8f/L	.	.	.
8F\L	.	8c\	.	8an/	.	.	.
8F\J	.	8d-X\J	.	8b-/J	.	.	.
4F\	.	8e-\L	.	8cc\L	.	.	.
.	.	8f\	.	8dd-X\	.	.	.
4C/	.	8b-\	.	8ee-\	.	.	.
.	.	8gn\J	.	8een\J	.	.	.
=91	=91	=91	=91	=91	=91	=91	=91
!	!	!LO:TX:a:t=P:problem=kasownik dopisany niebieską kredką	!	!	!	!	!
4E-\	.	8an\L	.	8ff\L	.	1r	.
!	!	!	!LO:HP:b	!	!LO:HP:b	!	!
.	.	8f\	>	8cc\	>	.	.
!	!LO:HP:b	!	!	!	!	!	!
4D-X/	>	8c\	.	8an\	.	.	.
.	.	8B-\J	.	8b-\J	.	.	.
8C/L	.	8e-\L	.	8a/L	.	.	.
8AAn/	.	8g-X\	.	8cc/	.	.	.
8BB-/	]	8d-X\	]	8b-/	.	.	.
8C/J	.	8e-\J	.	8a/J	]	.	.
=92	=92	=92	=92	=92	=92	=92	=92
!	!	!	!	!	!	!LO:MO:null:mod=!LO&colon;TX&colon;a&colon;i&colon;t=pizz.	!
!	!LO:DY:b	!	!LO:DY:b	!	!	!LO:TX:a:t=pizz	!LO:DY:b:rj
8D-X/L	pp	8d-X\L	pp	4b-\	.	8b-\L	pp
8BB-/	.	8f\	.	.	.	8dd-X\	.
8G-X/	.	8d-\	.	4r	.	8b-\	.
8D-/J	.	8f\J	.	.	.	8dd-\J	.
8E-\L	.	8g-X\L	.	2r	.	8b-\L	.
8En\	.	8c\	.	.	.	8cc\J	.
8F\	.	8d-\	.	.	.	8an/L	.
8E-X\J	.	8c\J	.	.	.	8f/J	.
=93	=93	=93	=93	=93	=93	=93	=93
8D-X/L	.	8B-\L	.	1r	.	8ff\L	.
8C/	.	8e-\	.	.	.	8ff\	.
8BB-/	.	8d-X\	.	.	.	8ff\	.
8AAn/J	.	8f\J	.	.	.	8dd-X\J	.
8BB-/L	.	8g-X\L	.	.	.	8b-\L	.
8GGn/	.	8f\	.	.	.	8dd-\	.
8AA/	.	8e-\	.	.	.	8cc\	.
8BB-/J	.	8d-\J	.	.	.	8b-\J	.
!!LO:LB:g=original
=94	=94	=94	=94	=94	=94	=94	=94
8FF#X/L	.	8c#X\L	.	1r	.	8ff#X\L	.
8GG#X/	.	8Bn\	.	.	.	8ff#\	.
!LO:N:acc=#	!	!	!	!	!	!	!
!LO:MO:mod=8AA#	!	!	!	!	!	!	!
8AAn/	.	8c#\	.	.	.	8ff#\	.
8BBn/J	.	8d\J	.	.	.	8ddn\J	.
8C#X/L	.	8en\L	.	.	.	8bn\L	.
8BB/	.	8f#X\	.	.	.	8dd\	.
8EEn/	.	8g\	.	.	.	8cc#X\	.
8GGn/J	.	8e\J	.	.	.	8b\J	.
=95||	=95||	=95||	=95||	=95||	=95||	=95||	=95||
*k[f#]	*	*k[f#]	*	*k[f#]	*	*k[f#]	*
*e:	*	*e:	*	*e:	*	*e:	*
!	!	!	!LO:DY:b:color=blue:rj	!	!	!	!
8FF#/L	.	8c#X\L	mf	1r	.	8a#X\L	.
8FF##X/	.	8e\	.	.	.	8cc#X\	.
8GG#X/	.	8c#\	.	.	.	8ee\	.
8GG#/J	.	8e\J	.	.	.	8g#X\J	.
8GG#/L	.	8c#/L	.	.	.	8an/L	.
8GG#/	.	8d#X/	.	.	.	8f#/	.
8GG#/	.	8B#X/	.	.	.	8g#/	.
8F#/J	.	8G#X/J	.	.	.	8b#X/J	.
=96	=96	=96	=96	=96	=96	=96	=96
!	!LO:DY:b:color=red	!	!LO:DY:b:color=blue:rj	!	!	!	!
8E\L	mf	8g#X\L	p	1r	.	8cc#X\L	.
8G#X\	.	8g#\	.	.	.	8b#X\	.
8E\	.	8g#\	.	.	.	8cc#\	.
8G#\J	.	8e\J	.	.	.	8ee\J	.
8E\L	.	8c#X\L	.	.	.	8gg#X\L	.
8F#\	.	8d#X\	.	.	.	8bn\	.
8D#X\	.	8f#\	.	.	.	8dd#X\	.
8BB\J	.	8a\J	.	.	.	8ff#\J	.
=97	=97	=97	=97	=97	=97	=97	=97
8B\L	.	8gn\L	.	1r	.	8ggn\L	.
8B\	.	8a\	.	.	.	8ff#\	.
8B\	.	8g\	.	.	.	8ee\	.
8Gn\J	.	8d#X\J	.	.	.	8b\J	.
8E\L	.	8e\L	.	.	.	8g/L	.
8G\	.	8cn\	.	.	.	8b/	.
8F#\	.	8d#\	.	.	.	8a/	.
8E\J	.	8e\J	.	.	.	8g/J	.
!!LO:LB:g=original
=98	=98	=98	=98	=98	=98	=98	=98
*	*	*	*	*Xtuplet	*	*	*
*	*	*	*	*tremolo	*	*	*
!	!	!	!	!LO:MO:mod=!LO&colon;TX&colon;a&colon;i&colon;t=arco	!	!	!
!	!	!	!	!LO:TX:a:t=arco	!LO:DY:b:rj	!	!
4BB/	.	4d#X\	.	12B/L	pp	4f#/	.
.	.	.	.	12B/	.	.	.
.	.	.	.	12B/J	.	.	.
4r	.	4r	.	12c/L	.	4r	.
.	.	.	.	12c/	.	.	.
.	.	.	.	12c/J	.	.	.
2r	.	2r	.	12c#X/L	.	2r	.
.	.	.	.	12c#/	.	.	.
.	.	.	.	12c#/J	.	.	.
.	.	.	.	12cn/L	.	.	.
.	.	.	.	12c/	.	.	.
.	.	.	.	12c/J	.	.	.
=99	=99	=99	=99	=99	=99	=99	=99
!LO:MO:null:mod=!LO&colon;TX&colon;a&colon;i&colon;t=poco piu	!	!LO:MO:mod=!LO&colon;TX&colon;a&colon;i&colon;t=poco piu	!	!	!	!	!
!	!LO:DY:b	!LO:TX:b:i:t=poco piu:color=blue	!LO:DY:b	!	!	!	!LO:DY:b
8B\L	p	8g\L	p	8B/	.	8ee\L	p
!LO:TX:b:i:t=poco:color=blue:mod=	!	!	!	!	!	!	!
8B\	.	8a\	.	8r	.	8ff#\	.
!	!	!	!	!LO:MO:mod=!null:null	!	!	!
!	!	!	!	!LO:TX:a:i:t=poco piu:color=blue	!	!	!
8B\	.	8f#\	.	4r	.	8dd#X\	.
8G\J	.	8e\J	.	.	.	8b\J	.
!	!	!	!	!	!	!LO:MO:mod=!LO&colon;TX&colon;a&colon;i&colon;t=poco piu	!
!	!	!	!	!	!	!LO:TX:a:i:t=poco piu:color=blue	!
8E\L	.	8g\L	.	2r	.	8ee\L	.
8G\	.	8b\	.	.	.	8ff#\	.
8F#\	.	8a\	.	.	.	8dd#\	.
8E\J	.	8g\J	.	.	.	8cc\J	.
=100	=100	=100	=100	=100	=100	=100	=100
!	!	!	!	!LO:MO:null:mod=!LO&colon;TX&colon;a&colon;i&colon;t=poco piu	!	!	!
!	!	!	!	!	!	!	!
4D#X\	.	4f#\	.	12B/L	.	4b\	.
.	.	.	.	12B/	.	.	.
.	.	.	.	12B/J	.	.	.
4r	.	4r	.	12c/L	.	4r	.
.	.	.	.	12c/	.	.	.
.	.	.	.	12c/J	.	.	.
2r	.	2r	.	12c#X/L	.	2r	.
.	.	.	.	12c#/	.	.	.
.	.	.	.	12c#/J	.	.	.
.	.	.	.	12cn/L	.	.	.
.	.	.	.	12c/	.	.	.
.	.	.	.	12c/J	.	.	.
=101	=101	=101	=101	=101	=101	=101	=101
1r	.	1r	.	12c#X/L	.	1r	.
.	.	.	.	12c#/	.	.	.
.	.	.	.	12c#/J	.	.	.
.	.	.	.	12d/L	.	.	.
.	.	.	.	12d/	.	.	.
.	.	.	.	12d/J	.	.	.
.	.	.	.	12d#X/L	.	.	.
.	.	.	.	12d#/	.	.	.
.	.	.	.	12d#/J	.	.	.
.	.	.	.	12dn/L	.	.	.
.	.	.	.	12d/	.	.	.
.	.	.	.	12d/J	.	.	.
*	*	*	*	*Xtremolo	*	*	*
=102	=102	=102	=102	=102	=102	=102	=102
!	!LO:DY:b:rj	!	!LO:DY:b:rj	!	!	!	!LO:DY:b:rj
8c#X\L	p	8a\L	p	8c#X/	.	8ff#\L	p
8c#\	.	8b\	.	8r	.	8gg#X\	.
8c#\	.	8g#X\	.	4r	.	8ee#X\	.
8A\J	.	8f#\J	.	.	.	8cc#X\J	.
8F#\L	.	8a\L	.	2r	.	8ccc#X\L	.
8G#X\	.	8b\	.	.	.	8ccc#\	.
8E#X\	.	8g#\	.	.	.	8ccc#\	.
8C#X\J	.	8e#X\J	.	.	.	8aa\J	.
=103	=103	=103	=103	=103	=103	=103	=103
8c#X\L	.	8a\L	.	1ryy	.	8ff#\L	.
8c#\	.	8b\	.	.	.	8gg#X\	.
8c#\	.	8g#X\	.	.	.	8ee#X\	.
8A\J	.	8e#X\J	.	.	.	8cc#X\J	.
8F#\L	.	8d/L	.	.	.	8dd/L	.
8G#X\	.	8c#X/	.	.	.	8b/	.
8E#X\	.	8A/	.	.	.	8g#X/	.
8D\J	.	8B/J	.	.	.	8f#/J	.
!!LO:LB:g=original
=104||	=104||	=104||	=104||	=104||	=104||	=104||	=104||
*	*	*	*	*tremolo	*	*	*
!!!OMD:
!!!OMD-mod: Tempo Io
!LO:TX:a:i:t=Tempo Io:mod=	!	!LO:TX:a:i:t=Tempo:mod=	!	!LO:TX:a:i:t=Tempo Io:mod=	!LO:DY:b:rj	!LO:TX:a:i:t=Tempo Io:mod=	!
4C#X/	.	4c#X\	.	12G#X/L	p	4e#X/	.
.	.	.	.	12G#/	.	.	.
.	.	.	.	12G#/J	.	.	.
4r	.	4r	.	12A/L	.	4r	.
.	.	.	.	12A/	.	.	.
.	.	.	.	12A/J	.	.	.
*	*	*tremolo	*	*	*	*	*
!	!	!LO:MO:mod=!LO&colon;TX&colon;a&colon;i&colon;t=arco	!	!	!	!	!
!	!	!LO:TX:a:t=arco	!LO:DY:b:rj	!	!	!	!
2r	.	12D/L	p	12B/L	.	2r	.
.	.	12D/	.	12B/	.	.	.
.	.	12D/J	.	12B/J	.	.	.
.	.	12D#X/L	.	12B#X/L	.	.	.
.	.	12D#/	.	12B#/	.	.	.
.	.	12D#/J	.	12B#/J	.	.	.
=105	=105	=105	=105	=105	=105	=105	=105
*Xtuplet	*	*	*	*	*	*	*
*tremolo	*	*	*	*	*	*	*
!LO:MO:mod=!LO&colon;TX&colon;a&colon;i&colon;t=arco	!	!	!	!	!	!	!
!LO:TX:a:t=arco	!LO:DY:b	!	!	!	!	!	!
12GG#X/L	p	12E#X/L	.	12c#X/L	.	1r	.
12GG#/	.	12E#/	.	12c#/	.	.	.
12GG#/J	.	12E#/J	.	12c#/J	.	.	.
12AA/L	.	12F#/L	.	12d/L	.	.	.
12AA/	.	12F#/	.	12d/	.	.	.
12AA/J	.	12F#/J	.	12d/J	.	.	.
12BB/L	.	12G#X/L	.	12e#X/L	.	.	.
12BB/	.	12G#/	.	12e#/	.	.	.
12BB/J	.	12G#/J	.	12e#/J	.	.	.
12C#X/L	.	12A/L	.	12f#/L	.	.	.
12C#/	.	12A/	.	12f#/	.	.	.
12C#/J	.	12A/J	.	12f#/J	.	.	.
=106	=106	=106	=106	=106	=106	=106	=106
12D/L	.	12A#X/L	.	12f##X/L	.	2r	.
12D/	.	12A#/	.	12f##/	.	.	.
12D/J	.	12A#/J	.	12f##/J	.	.	.
8D/	.	8A#/	.	8f##/	.	.	.
8r	.	8r	.	8r	.	.	.
12D/L	.	12B/L	.	12g/L	.	4r	.
12D/	.	12B/	.	12g/	.	.	.
12D/J	.	12B/J	.	12g/J	.	.	.
!	!	!	!	!	!	!LO:MO:mod=!LO&colon;TX&colon;a&colon;i&colon;t=arco	!
!	!	!	!	!	!	!LO:TX:a:t=arco	!
8D/	.	8B/	.	8g/	.	8r	.
!	!	!	!	!	!	!	!LO:DY:b:rj
8r	.	8r	.	8r	.	(<32g#X/LLL	p
.	.	.	.	.	.	32a/	.
.	.	.	.	.	.	32b/	.
.	.	.	.	.	.	32cc#X/JJJ	.
=107	=107	=107	=107	=107	=107	=107	=107
2r	.	2r	.	2r	.	4dd\)	.
.	.	.	.	.	.	4r	.
!	!LO:DY:b:rj	!	!LO:DY:b:rj	!	!LO:DY:b:rj	!	!
12D\L	p	12B/L	p	12g#X/L	p	2r	.
12D\	.	12B/	.	12g#/	.	.	.
12D\J	.	12B/J	.	12g#/J	.	.	.
8D\	.	8B/	.	8g#/	.	.	.
8r	.	8r	.	8r	.	.	.
=108	=108	=108	=108	=108	=108	=108	=108
12D#X\L	.	12cn\L	.	12g#X/L	.	2r	.
12D#\	.	12c\	.	12g#/	.	.	.
12D#\J	.	12c\J	.	12g#/J	.	.	.
8D#\	.	8c\	.	8g#/	.	.	.
8r	.	8r	.	8r	.	.	.
12E\L	.	12c\L	.	12a/L	.	4r	.
12E\	.	12c\	.	12a/	.	.	.
12E\J	.	12c\J	.	12a/J	.	.	.
8E\	.	8c\	.	8a/	.	8r	.
!	!	!	!	!	!	!	!LO:DY:b:rj
8r	.	8r	.	8r	.	(>32a\LLL	p
.	.	.	.	.	.	32b\	.
.	.	.	.	.	.	32ccn\	.
.	.	.	.	.	.	32dd\JJJ	.
!!LO:PB:g=original
=109	=109	=109	=109	=109	=109	=109	=109
2r	.	2r	.	2r	.	4ee\)	.
.	.	.	.	.	.	4r	.
!	!LO:DY:b:rj	!	!LO:DY:b:rj	!	!LO:DY:b:rj	!	!
12F#X\L	p	12c#X\L	p	12a/L	p	2r	.
12F#\	.	12c#\	.	12a/	.	.	.
12F#\J	.	12c#\J	.	12a/J	.	.	.
8F#\	.	8c#\	.	8a/	.	.	.
8r	.	8r	.	8r	.	.	.
=110	=110	=110	=110	=110	=110	=110	=110
12E#X\L	.	12d\L	.	12a#X/L	.	2r	.
12E#\	.	12d\	.	12a#/	.	.	.
12E#\J	.	12d\J	.	12a#/J	.	.	.
8E#\	.	8d\	.	8a#/	.	.	.
8r	.	8r	.	8r	.	.	.
12F#\L	.	12d\L	.	12b/L	.	4r	.
12F#\	.	12d\	.	12b/	.	.	.
12F#\J	.	12d\J	.	12b/J	.	.	.
8F#\	.	8d\	.	8b/	.	8r	.
!	!	!	!	!	!	!	!LO:DY:b:rj
8r	.	8r	.	8r	.	(>32b\LLL	p
.	.	.	.	.	.	32cc#X\	.
.	.	.	.	.	.	32dd\	.
.	.	.	.	.	.	32ee\JJJ	.
=111	=111	=111	=111	=111	=111	=111	=111
2r	.	2r	.	2r	.	4ff#\)	.
.	.	.	.	.	.	4r	.
!	!LO:DY:b:rj	!	!LO:DY:b:rj	!	!LO:DY:b:rj	!	!
12F#\L	p	12d\L	p	12b\L	p	4r	.
12F#\	.	12d\	.	12b\	.	.	.
12F#\J	.	12d\J	.	12b\J	.	.	.
8F#\	.	8d\	.	8b\	.	8r	.
!	!	!	!	!	!	!	!LO:DY:b:rj
8r	.	8r	.	8r	.	(>32b\LLL	p
.	.	.	.	.	.	32cc#X\	.
.	.	.	.	.	.	32dd\	.
.	.	.	.	.	.	32ee\JJJ	.
!!LO:REH:t=H
=112	=112	=112	=112	=112	=112	=112	=112
2r	.	2r	.	2r	.	4ff#\)	.
!	!	!	!	!	!	!LO:TX:a:B:t=H:color=blue:mod=	!
.	.	.	.	.	.	4r	.
!LO:TX:b:B:t=H:color=blue:mod=	!LO:DY:b:rj	!	!LO:DY:b:rj	!	!LO:DY:b:rj	!	!
12FF#/L	pp	12D/L	pp	12B/L	pp	4r	.
12FF#/	.	12D/	.	12B/	.	.	.
12FF#/J	.	12D/J	.	12B/J	.	.	.
8FF#/	.	8D/	.	8B/	.	8r	.
!	!	!	!	!	!	!LO:TUP:a	!LO:DY:b:rj
8r	.	8r	.	8r	.	(>48b\LLL	p
.	.	.	.	.	.	48cc#X\	.
.	.	.	.	.	.	48dd\	.
.	.	.	.	.	.	48ee\	.
.	.	.	.	.	.	48ff#\	.
.	.	.	.	.	.	48gg\JJJ	.
=113	=113	=113	=113	=113	=113	=113	=113
12FF#/L	.	12D/L	.	12B/L	.	4aa\)	.
12FF#/	.	12D/	.	12B/	.	.	.
12FF#/J	.	12D/J	.	12B/J	.	.	.
8FF#/	.	8D/	.	8B/	.	4r	.
8r	.	8r	.	8r	.	.	.
12FF#/L	.	12D/L	.	12B/L	.	4r	.
12FF#/	.	12D/	.	12B/	.	.	.
12FF#/J	.	12D/J	.	12B/J	.	.	.
8FF#/	.	8D/	.	8B/	.	8r	.
!	!	!	!	!	!	!LO:TUP:a	!
8r	.	8r	.	8r	.	(>48b\LLL	.
.	.	.	.	.	.	48cc#X\	.
.	.	.	.	.	.	48dd\	.
.	.	.	.	.	.	48ee\	.
.	.	.	.	.	.	48ff#\	.
.	.	.	.	.	.	48gg\JJJ)	.
!!LO:LB:g=original
=114	=114	=114	=114	=114	=114	=114	=114
2r	.	2r	.	2r	.	4aa\	.
.	.	.	.	.	.	(<16qqgg/LL	.
.	.	.	.	.	.	16qqaa/JJ	.
.	.	.	.	.	.	8.gg\L)	.
.	.	.	.	.	.	16ee\Jk	.
!	!LO:DY:b:rj	!	!LO:DY:b:rj	!	!LO:DY:b:rj	!	!
12FF#/L	pp	12D/L	pp	12B/L	pp	4ff#\	.
12FF#/	.	12D/	.	12B/	.	.	.
12FF#/J	.	12D/J	.	12B/J	.	.	.
8FF#/	.	8D/	.	8B/	.	8r	.
!	!	!	!	!	!	!LO:TUP:a	!
8r	.	8r	.	8r	.	(>48b\LLL	.
.	.	.	.	.	.	48cc#X\	.
.	.	.	.	.	.	48dd#\	.
.	.	.	.	.	.	48ee\	.
.	.	.	.	.	.	48ff#\	.
.	.	.	.	.	.	48gg\JJJ	.
=115	=115	=115	=115	=115	=115	=115	=115
2r	.	2r	.	2r	.	4aa\)	.
.	.	.	.	.	.	16qqgg/LL	.
.	.	.	.	.	.	16qqaa/JJ	.
.	.	.	.	.	.	8.gg\L	.
.	.	.	.	.	.	16ee\Jk	.
!	!LO:DY:b:rj	!	!LO:DY:b:rj	!	!LO:DY:b:rj	!	!
12FF#/L	p	12D#X/L	p	12B/L	p	4ff#\	.
12FF#/	.	12D#/	.	12B/	.	.	.
12FF#/J	.	12D#/J	.	12B/J	.	.	.
8FF#/	.	8D#/	.	8B/	.	4r	.
8r	.	8r	.	8r	.	.	.
=116	=116	=116	=116	=116	=116	=116	=116
12AA/L	.	12F#/L	.	12d#X/L	.	2r	.
12AA/	.	12F#/	.	12d#/	.	.	.
12AA/J	.	12F#/J	.	12d#/J	.	.	.
8AA/	.	8F#/	.	8d#/	.	.	.
8r	.	8r	.	8r	.	.	.
12D#X\L	.	12A/L	.	12f#/L	.	4r	.
12D#\	.	12A/	.	12f#/	.	.	.
12D#\J	.	12A/J	.	12f#/J	.	.	.
12Dn\L	.	12A#X/L	.	12g/L	.	8r	.
12D\	.	12A#/	.	12g/	.	.	.
!	!	!	!	!	!	!LO:TUP:a	!LO:DY:b:rj
.	.	.	.	.	.	(>48b\LLL	p
!	!	!	!	!	!LO:MO:mod=!null:null	!	!
!	!	!	!	!	!LO:HP:b:t=crescendo	!	!
!	!	!	!	!	!LO:MO:mod=.	!	!
.	.	.	.	.	<	48cc#X\	.
!	!	!	!LO:MO:mod=!null:null	!	!	!	!
!	!	!	!LO:HP:b:t=crescendo	!	!	!	!
!	!	!	!LO:MO:mod=.	!	!	!	!
12D\J	.	12A#/J	<	12g/J	.	48dd#X\	.
.	.	.	.	.	.	48ee\	.
!	!	!	!	!	!	!	!LO:HP:b:t=crescendo
.	.	.	.	.	.	48ff#\	<
.	.	.	.	.	.	48gg\JJJ	.
=117	=117	=117	=117	=117	=117	=117	=117
!	!	!LO:MO:null:mod=!LO&colon;TX&colon;b&colon;i&colon;t=crescendo	!	!LO:MO:null:mod=!LO&colon;TX&colon;b&colon;i&colon;t=crescendo	!	!	!
!	!LO:HP:b:t=crescendo	!	!	!	!	!	!
12D#X\L	<	12An/L	.	12f#/L	.	4aa\)	.
12D#\	.	12A/	.	12f#/	.	.	.
12D#\J	.	12A/J	.	12f#/J	.	.	.
12Dn\L	.	12A#X/L	.	12g/L	.	8r	.
12D\	.	12A#/	.	12g/	.	.	.
*	*	*	*	*	*	*Xtuplet	*
.	.	.	.	.	.	(>48b\LLL	.
.	.	.	.	.	.	48cc#X\	.
12D\J	.	12A#/J	.	12g/J	.	48dd\	.
.	.	.	.	.	.	48ee\	.
.	.	.	.	.	.	48ff#\	.
.	.	.	.	.	.	48gg\JJJ	.
12D#X\L	.	12An/L	.	12f#/L	.	4aa\)	.
12D#\	.	12A/	.	12f#/	.	.	.
12D#\J	.	12A/J	.	12f#/J	.	.	.
12Dn\L	.	12A#X/L	.	12g/L	.	8r	.
12D\	.	12A#/	.	12g/	.	.	.
.	.	.	.	.	.	(>48b\LLL	.
.	.	.	.	.	.	48cc#\	.
12D\J	.	12A#/J	.	12g/J	.	48dd\	.
.	.	.	.	.	.	48ee\	.
.	.	.	.	.	.	48ff#\	.
.	.	.	.	.	.	48gg\JJJ	.
!!LO:LB:g=original
=118	=118	=118	=118	=118	=118	=118	=118
!	!LO:DY:b	!	!LO:DY:b	!	!LO:DY:b:rj	!	!LO:DY:b
12D#X\L	mf	12An/L	mf	12f#/L	mf	16aa\LL)	mf
.	.	.	.	.	.	(>32b\L	.
!LO:TX:b:i:t=molto rallentando	!	!LO:TX:b:i:t=molto rallentando	!	!LO:TX:b:i:t=molto rallentando	!	!	!
12D#\	.	12A/	.	12f#/	.	.	.
!	!	!	!	!	!	!LO:TX:b:i:t=molto rallentando	!
.	.	.	.	.	.	32cc#X\	.
.	.	.	.	.	.	32dd#X\	.
.	.	.	.	.	.	32ee\	.
12D#\J	.	12A/J	.	12f#/J	.	.	.
.	.	.	.	.	.	32ff#\	.
.	.	.	.	.	.	32gg\JJJ)	.
12BB/L	.	12AL 12D#X/	.	12f#/L	.	16aa\LL	.
.	.	.	.	.	.	(>32b\L	.
12BB/	.	12A 12D#/	.	12f#/	.	.	.
.	.	.	.	.	.	32cc#\	.
.	.	.	.	.	.	32dd#\	.
.	.	.	.	.	.	32ee\	.
12BB/J	.	12AJ 12D#/	.	12f#/J	.	.	.
.	.	.	.	.	.	32ff#\	.
.	.	.	.	.	.	32gg\JJJ	.
12BB/L	.	12AL 12D#/	.	12f#/L	.	16aa\LL)	.
.	.	.	.	.	.	(>32b\L	.
12BB/	.	12A 12D#/	.	12f#/	.	.	.
.	.	.	.	.	.	32cc#\	.
.	.	.	.	.	.	32dd#\	.
.	.	.	.	.	.	32ee\	.
12BB/J	.	12AJ 12D#/	.	12f#/J	.	.	.
.	.	.	.	.	.	32ff#\	.
.	.	.	.	.	.	32gg\JJJ	.
12BB/L	.	12AL 12D#/	.	12f#/L	.	8aa\L)	.
12BB/	.	12A 12D#/	.	12f#/	.	.	.
.	.	.	.	.	.	(>56b\LL	.
!	!	!	!	!	!	!	!LO:HP:b
.	.	.	.	.	.	56cc#\	<
.	.	.	.	.	.	56dd#\	.
12BB/J	.	12AJ 12D#/	.	12f#/J	.	.	.
.	.	.	.	.	.	56ee\	.
.	.	.	.	.	.	56ff#\	.
.	.	.	.	.	.	56gg\	.
.	.	.	.	.	.	56aa\JJJ	[[
*	*	*	*	*Xtremolo	*	*	*
=119	=119	=119	=119	=119	=119	=119	=119
!!!OMD:
!!!OMD-mod: à tempo
!LO:TX:a:i:t=à tempo:mod=	!LO:DY:b:rj	!LO:TX:a:i:t=à tempo:mod=	!LO:DY:b:rj	!LO:TX:a:i:t=à tempo:mod=	!LO:DY:b:rj	!LO:TX:a:i:t=à tempo:mod=	!LO:DY:b:rj
4G 4BB 4EE/	f	4G 4E/	f	12g/L	f	8bb\)	f
.	.	.	.	12a/	.	.	.
.	.	.	.	.	.	8r	.
.	.	.	.	12b/J	.	.	.
.	.	.	.	.	.	(<16qqaa/LL	.
.	.	.	.	.	.	16qqbb/JJ	.
4r	.	4a 4B 4E/	.	12cc\L	.	(>8.aa\L)	.
.	.	.	.	12dd\	.	.	.
.	.	.	.	12cc\J	.	.	.
.	.	.	.	.	.	16ff#'>\Jk)	.
4G 4BB 4EE/	.	4r	.	12b\L	.	4gg\	.
.	.	.	.	12cc\	.	.	.
.	.	.	.	12b\J	.	.	.
.	.	.	.	.	.	(<16qqff#/LL	.
.	.	.	.	.	.	16qqgg/JJ	.
4r	.	4a 4B 4E/	.	12a/L	.	(>8.ff#\L)	.
.	.	.	.	12g/	.	.	.
.	.	.	.	12f#/J	.	.	.
.	.	.	.	.	.	16dd'>\Jk)	.
=120	=120	=120	=120	=120	=120	=120	=120
4G 4BB 4EE/	.	4r	.	12g/L	.	4ee\	.
.	.	.	.	12e/	.	.	.
.	.	.	.	12f#/J	.	.	.
.	.	.	.	.	.	(<16qqdd/LL	.
.	.	.	.	.	.	16qqff#/JJ	.
4r	.	4g 4B 4E/	.	12g/L	.	(>8.dd\L)	.
.	.	.	.	12f#/	.	.	.
.	.	.	.	12e/J	.	.	.
.	.	.	.	.	.	16cc'>\Jk)	.
2r	.	2r	.	12g/L	.	8.b\L	.
.	.	.	.	12e/	.	.	.
.	.	.	.	12f#/J	.	.	.
.	.	.	.	.	.	(>16b\Jk	.
.	.	.	.	12g/L	.	4ee\)	.
.	.	.	.	12a/	.	.	.
.	.	.	.	12b/J	.	.	.
=121	=121	=121	=121	=121	=121	=121	=121
4EE/	.	4e 4A\	.	12cc/L	.	4f#/	.
.	.	.	.	12b/	.	.	.
.	.	.	.	12a/J	.	.	.
4r	.	4r	.	12g/L	.	8g/L	.
.	.	.	.	12f#/	.	.	.
.	.	.	.	.	.	16r	.
.	.	.	.	12e/J	.	.	.
.	.	.	.	.	.	16a/Jk	.
2DD/	.	2r	.	12f#/L	.	8b/L	.
.	.	.	.	12g/	.	.	.
.	.	.	.	.	.	16r	.
.	.	.	.	12f#/J	.	.	.
.	.	.	.	.	.	16a/Jk	.
.	.	.	.	12d/L	.	8f#/L	.
.	.	.	.	12c/	.	.	.
.	.	.	.	.	.	16r	.
.	.	.	.	12B/J	.	.	.
.	.	.	.	.	.	16g/Jk	.
!!LO:LB:g=original
=122	=122	=122	=122	=122	=122	=122	=122
*Xtremolo	*	*Xtremolo	*	*Xtremolo	*	*	*
4CC/	.	4E/	.	12A/L	.	2.e/	.
.	.	.	.	12c/	.	.	.
.	.	.	.	12B/J	.	.	.
4r	.	4C/	.	12A/L	.	.	.
.	.	.	.	12B/	.	.	.
.	.	.	.	12A/J	.	.	.
4B 4E 4GG\	.	2r	.	12B/L	.	.	.
.	.	.	.	12c/	.	.	.
.	.	.	.	12B/J	.	.	.
4r	.	.	.	12e/L	.	32r	.
.	.	.	.	.	.	(<32e/LLL	.
.	.	.	.	.	.	32f#/	.
.	.	.	.	12d/	.	.	.
.	.	.	.	.	.	32g/	.
.	.	.	.	.	.	32a/	.
.	.	.	.	.	.	32b/	.
.	.	.	.	12c/J	.	.	.
.	.	.	.	.	.	32cc/	.
.	.	.	.	.	.	32dd/JJJ	.
=123	=123	=123	=123	=123	=123	=123	=123
4FF#/	.	4c 4D/	.	12A/L	.	4ee\)	.
.	.	.	.	12B/	.	.	.
.	.	.	.	12c/J	.	.	.
.	.	.	.	.	.	(<16qqdd/LL	.
.	.	.	.	.	.	16qqee/JJ	.
4r	.	4f# 4c 4D/	.	12d/L	.	(>8.dd\L)	.
.	.	.	.	12e/	.	.	.
.	.	.	.	12f#/J	.	.	.
.	.	.	.	.	.	16cc'>\Jk)	.
4G 4BB 4DD/	.	4r	.	12g/L	.	(>8.b\L	.
.	.	.	.	12f#/	.	.	.
.	.	.	.	12e/J	.	.	.
.	.	.	.	.	.	16cc'>\Jk)	.
4r	.	4f# 4c 4D/	.	12d/L	.	[>4dd\	.
.	.	.	.	12e/	.	.	.
.	.	.	.	12f#/J	.	.	.
=124	=124	=124	=124	=124	=124	=124	=124
4B 4D 4GG\	.	4r	.	12g/L	.	4dd\]	.
.	.	.	.	12a/	.	.	.
.	.	.	.	12g/J	.	.	.
4r	.	4f# 4c 4D/	.	12f#/L	.	(<8.a/L	.
.	.	.	.	12d/	.	.	.
.	.	.	.	12e/J	.	.	.
.	.	.	.	.	.	16cc'</Jk)	.
.	.	.	.	.	.	(<16qqb/LL	.
.	.	.	.	.	.	16qqcc/JJ	.
4B 4D 4GG\	.	2r	.	12d/L	.	(<8.b/L)	.
.	.	.	.	12e/	.	.	.
.	.	.	.	12f#/J	.	.	.
.	.	.	.	.	.	16a'</Jk)	.
4r	.	.	.	12g/L	.	(>32g\LLL	.
.	.	.	.	.	.	32a\	.
.	.	.	.	.	.	32b\	.
.	.	.	.	12d/	.	.	.
.	.	.	.	.	.	32cc\	.
.	.	.	.	.	.	32dd\	.
.	.	.	.	.	.	32ee\	.
.	.	.	.	12c/J	.	.	.
.	.	.	.	.	.	32ffn\	.
.	.	.	.	.	.	32gg\JJJ	.
=125	=125	=125	=125	=125	=125	=125	=125
4D 4GG 4CC/	.	4r	.	12B/L	.	4aa\)	.
.	.	.	.	12d/	.	.	.
.	.	.	.	12e/J	.	.	.
.	.	.	.	.	.	(<16qqgg/LL	.
.	.	.	.	.	.	16qqaa/JJ	.
4r	.	4b 4fn 4G\	.	12fn/L	.	(>8.gg\L)	.
.	.	.	.	12g/	.	.	.
.	.	.	.	12a/J	.	.	.
.	.	.	.	.	.	16ffn'>\Jk)	.
4E 4GG 4CC/	.	4r	.	12b/L	.	(>8.ee\L	.
.	.	.	.	12cc/	.	.	.
.	.	.	.	12a/J	.	.	.
.	.	.	.	.	.	16ff'>\Jk)	.
4r	.	4cc 4e 4G\	.	12g/L	.	4gg\	.
.	.	.	.	12a/	.	.	.
.	.	.	.	12b/J	.	.	.
!!LO:PB:g=original
=126	=126	=126	=126	=126	=126	=126	=126
4G 4C\	.	4r	.	12cc/L	.	(>8.ee\L	.
.	.	.	.	12b/	.	.	.
.	.	.	.	12a/J	.	.	.
.	.	.	.	.	.	16ffn'>\Jk)	.
4r	.	4cc 4e 4G\	.	12g/L	.	4gg\	.
.	.	.	.	12a/	.	.	.
.	.	.	.	12b/J	.	.	.
4G 4BB\	.	4r	.	12cc/L	.	(>8.ee\L	.
.	.	.	.	12b/	.	.	.
.	.	.	.	12a/J	.	.	.
.	.	.	.	.	.	16ff'>\Jk)	.
4r	.	4cc 4e 4G\	.	12g/L	.	(>32gg\LLL	.
.	.	.	.	.	.	32ee\	.
.	.	.	.	.	.	32ff\	.
.	.	.	.	12a/	.	.	.
.	.	.	.	.	.	32gg\	.
.	.	.	.	.	.	32aa\	.
.	.	.	.	.	.	32bb\	.
.	.	.	.	12b/J	.	.	.
.	.	.	.	.	.	32ccc\	.
.	.	.	.	.	.	32ddd\JJJ	.
=127	=127	=127	=127	=127	=127	=127	=127
4c 4E 4AA\	.	4r	.	12cc\L	.	4eee\)	.
.	.	.	.	12b\	.	.	.
.	.	.	.	12cc\J	.	.	.
.	.	.	.	.	.	(<16qqddd/LL	.
.	.	.	.	.	.	16qqeee/JJ	.
4r	.	4dd 4f#X 4A\	.	12dd\L	.	(>8.ddd\L)	.
.	.	.	.	12ee\	.	.	.
.	.	.	.	12dd\J	.	.	.
.	.	.	.	.	.	16bb'>\Jk)	.
4c 4E 4AA\	.	4r	.	12cc\L	.	4ccc\	.
.	.	.	.	12ee\	.	.	.
.	.	.	.	12dd\J	.	.	.
4r	.	4cc 4e 4A\	.	12cc\L	.	32r	.
.	.	.	.	.	.	(>32ee\LLL	.
.	.	.	.	.	.	32ff#X\	.
.	.	.	.	12a\	.	.	.
.	.	.	.	.	.	32gg\	.
.	.	.	.	.	.	32aa\	.
.	.	.	.	.	.	32bb\	.
.	.	.	.	12b\J	.	.	.
.	.	.	.	.	.	32ccc\	.
.	.	.	.	.	.	32ddd\JJJ	.
=128	=128	=128	=128	=128	=128	=128	=128
4c 4E 4AA\	.	4r	.	12cc\L	.	4eee\)	.
.	.	.	.	12dd\	.	.	.
.	.	.	.	12ee\J	.	.	.
.	.	.	.	.	.	16qqddd/LL	.
.	.	.	.	.	.	16qqeee/JJ	.
4r	.	4dd 4fn 4A\	.	12ffn\L	.	(>8.ddd\L	.
.	.	.	.	12ee\	.	.	.
.	.	.	.	12dd\J	.	.	.
.	.	.	.	.	.	16bb'>\Jk)	.
4c 4E 4AA\	.	4r	.	12cc/L	.	4ccc\	.
.	.	.	.	12b/	.	.	.
.	.	.	.	12a/J	.	.	.
4r	.	4dd 4e 4A\	.	12g#X/L	.	32r	.
.	.	.	.	.	.	(>32ee\LLL	.
.	.	.	.	.	.	32ff#X\	.
.	.	.	.	12a/	.	.	.
.	.	.	.	.	.	32gg#X\	.
.	.	.	.	.	.	32aa\	.
.	.	.	.	.	.	32bb\	.
.	.	.	.	12b/J	.	.	.
.	.	.	.	.	.	32ccc\	.
.	.	.	.	.	.	32ddd\JJJ	.
!!LO:LB:g=original
=129	=129	=129	=129	=129	=129	=129	=129
!	!	!	!	!	!	!LO:TX:a:t=P:problem=brak zakończenia łuku	!
4c 4E 4AA\	.	4r	.	12cc\L	.	4eee\)	.
.	.	.	.	12b\	.	.	.
.	.	.	.	12cc\J	.	.	.
.	.	.	.	.	.	(<16qqddd/LL	.
.	.	.	.	.	.	16qqeee/JJ	.
4r	.	4dd 4fn 4A\	.	12dd\L	.	(>8.ddd\L)	.
.	.	.	.	12ee\	.	.	.
.	.	.	.	12dd\J	.	.	.
.	.	.	.	.	.	16bb'>\Jk)	.
4c 4E 4AA\	.	4r	.	12ee\L	.	4ccc\	.
.	.	.	.	12ffn\	.	.	.
.	.	.	.	12ee\J	.	.	.
.	.	.	.	.	.	(<16qqbb/LL	.
.	.	.	.	.	.	16qqccc/JJ	.
4r	.	4dd 4e 4A\	.	12dd\L	.	(>8.bb\L)	.
.	.	.	.	12ee\	.	.	.
.	.	.	.	12dd\J	.	.	.
.	.	.	.	.	.	16ggn'>\Jk)	.
=130	=130	=130	=130	=130	=130	=130	=130
4c 4E 4AA\	.	4r	.	12cc/L	.	4aa\	.
.	.	.	.	12a/	.	.	.
.	.	.	.	12b/J	.	.	.
.	.	.	.	.	.	(<16qqgg/LL	.
.	.	.	.	.	.	16qqaa/JJ	.
4r	.	4cc 4fn 4A\	.	12cc/L	.	(>8.gg\L)	.
.	.	.	.	12b/	.	.	.
.	.	.	.	12a/J	.	.	.
.	.	.	.	.	.	16ffn'>\Jk)	.
4c 4E 4AA\	.	4r	.	12cc/L	.	8.ee\L	.
.	.	.	.	12a/	.	.	.
.	.	.	.	12b/J	.	.	.
.	.	.	.	.	.	(>16ee\Jk	.
4r	.	4cc 4e 4A\	.	12cc/L	.	4aa\)	.
.	.	.	.	12a/	.	.	.
.	.	.	.	12g/J	.	.	.
=131	=131	=131	=131	=131	=131	=131	=131
4DD/	.	4a 4B\	.	12fn/L	.	4b\	.
.	.	.	.	12g/	.	.	.
.	.	.	.	12f/J	.	.	.
4r	.	4a 4d 4Fn\	.	12a/L	.	(>8.cc\L	.
.	.	.	.	12g/	.	.	.
.	.	.	.	12f/J	.	.	.
.	.	.	.	.	.	16dd'>\Jk)	.
4EE/	.	4g#X\	.	12e/L	.	(>8.ee\L	.
.	.	.	.	12f/	.	.	.
.	.	.	.	12e/J	.	.	.
.	.	.	.	.	.	16dd'>\Jk)	.
4r	.	4e\	.	12d/L	.	(>8.b\L	.
.	.	.	.	12e/	.	.	.
.	.	.	.	12d/J	.	.	.
.	.	.	.	.	.	16cc'>\Jk)	.
!!LO:REH:t=J
=132	=132	=132	=132	=132	=132	=132	=132
!LO:TX:b:B:t=J:color=blue:mod=	!	!	!	!	!	!LO:TX:a:B:t=J:color=blue:mod=	!
8AA/	.	8e\	.	12c/L	.	8a/	.
.	.	.	.	12d/	.	.	.
8r	.	8r	.	.	.	8r	.
.	.	.	.	12e/J	.	.	.
!	!LO:DY:b	!	!LO:DY:b:rj	!	!LO:DY:b	!	!LO:DY:b:rj
12AA/L	p	(>4c\	p	(<4fn/	p	12av>/L	p
!	!	!	!LO:HP:b	!	!LO:HP:b	!	!
12AA/	.	.	<	.	<	12b/	.
!	!	!	!	!	!	!	!LO:HP:b
12AA/J	.	.	.	.	.	12a/J	<
4AA/	.	4d\	.	4g/	.	12b\L	.
.	.	.	.	.	.	12cc\	.
.	.	.	.	.	.	12b\J	.
12AA/L	.	4e\)	[	4a/)	[	12cc\L	.
12AA/	.	.	.	.	.	12dd\	[
12AA/J	.	.	.	.	.	12cc\J	.
!!LO:LB:g=original
=133	=133	=133	=133	=133	=133	=133	=133
4AA/	.	4f#\	.	(<4a/	.	12cc#X\L	.
.	.	.	.	.	.	12dd\	.
.	.	.	.	.	.	12cc#\J	.
!	!	!	!	!	!	!	!LO:HP:b
4r	.	8r	.	4fn/	.	12dd\L	<
.	.	.	.	.	.	12ee\	.
!	!	!	!LO:DY:b:rj	!	!	!	!
.	.	(>32a\LLL	f	.	.	.	.
.	.	32g\	.	.	.	.	.
.	.	.	.	.	.	12dd\J	.
.	.	32fn\	.	.	.	.	.
.	.	32e\JJJ	.	.	.	.	.
2r	.	8d\)	.	8a/)	.	12ffn\L	.
.	.	.	.	.	.	12gg\	.
.	.	8r	.	8r	.	.	.
.	.	.	.	.	.	12ff\J	.
.	.	4r	.	8r	.	12aa\L	.
.	.	.	.	.	.	12bb\	.
*	*	*	*	*tuplet	*	*	*
!	!	!	!	!LO:TUP:a	!LO:DY:b:rj	!	!
.	.	.	.	(>40ffn\LLL	f	.	.
.	.	.	.	40ee\	.	.	.
.	.	.	.	.	.	12aa\J	[
.	.	.	.	40dd\	.	.	.
.	.	.	.	40cc\	.	.	.
.	.	.	.	40b\JJJ	.	.	.
=134	=134	=134	=134	=134	=134	=134	=134
!	!	!	!	!	!	!	!LO:DY:b
2r	.	8r	.	8a/)	.	12ccc^>\L	f
.	.	.	.	.	.	12ddd\	.
!	!	!	!LO:DY:b:rj	!	!	!	!
.	.	(>32cc\LLL	f	8r	.	.	.
.	.	32b\	.	.	.	.	.
.	.	.	.	.	.	12ccc\J	.
.	.	32a\	.	.	.	.	.
.	.	32g\JJJ	.	.	.	.	.
!	!	!	!	!	!	!	!LO:HP:b
.	.	8fn\)	.	8r	.	12aa\L	>
.	.	.	.	.	.	12bb\	.
!	!	!	!	!	!LO:DY:b:rj	!	!
.	.	8r	.	(<32a/LLL	f	.	.
.	.	.	.	32g/	.	.	.
.	.	.	.	.	.	12aa\J	.
.	.	.	.	32fn/	.	.	.
.	.	.	.	32e/JJJ	.	.	.
4r	.	8r	.	8d/)	.	12ffn\L	.
.	.	.	.	.	.	12gg\	.
*	*	*Xtuplet	*	*	*	*	*
!	!	!	!LO:DY:b:rj	!	!	!	!
.	.	(>40dd\LLL	f	8r	.	.	.
.	.	40cc\	.	.	.	.	.
.	.	.	.	.	.	12ff\J	.
.	.	40b\	.	.	.	.	.
.	.	40a\	.	.	.	.	.
.	.	40g\JJJ	.	.	.	.	.
8r	.	8fnX\)	.	4r	.	12dd\L	.
.	.	.	.	.	.	12ee\	.
!	!LO:DY:b:rj	!	!	!	!	!	!
(>32G\LLL	f	8r	.	.	.	.	.
32Fn\	.	.	.	.	.	.	.
.	.	.	.	.	.	12dd\J	.
32E\	.	.	.	.	.	.	.
32D\JJJ	.	.	.	.	.	.	.
=135	=135	=135	=135	=135	=135	=135	=135
8C/)	.	(<8.A/L	.	8a/	.	12ee\L	]
.	.	.	.	.	.	12ffn\	.
8r	.	.	.	8r	.	.	.
.	.	.	.	.	.	12ee\J	.
.	.	32c/LL	.	.	.	.	.
.	.	32d/JJJ)	.	.	.	.	.
4r	.	8e\	.	8.r	.	12cc\L	.
.	.	.	.	.	.	12dd\	.
.	.	8r	.	.	.	.	.
.	.	.	.	.	.	12cc\J	.
!	!	!	!	!	!LO:DY:b:rj	!	!
.	.	.	.	(<32e/LLL	f	.	.
.	.	.	.	32f#X/JJJ	.	.	.
4r	.	8.r	.	8g#X/)	.	12b\L	.
.	.	.	.	.	.	12cc\	.
.	.	.	.	8r	.	.	.
.	.	.	.	.	.	12b\J	.
!	!	!	!LO:DY:b	!	!	!	!
.	.	(>32g#X\LLL	f	.	.	.	.
.	.	32a\JJJ	.	.	.	.	.
8.r	.	8b\)	.	4r	.	12dd\L	.
.	.	.	.	.	.	12ee\	.
.	.	8r	.	.	.	.	.
.	.	.	.	.	.	12dd\J	.
!	!LO:DY:b:rj	!	!	!	!	!	!
(>32F#X\LLL	f	.	.	.	.	.	.
32G#X\JJJ	.	.	.	.	.	.	.
=136	=136	=136	=136	=136	=136	=136	=136
!	!	!	!	!	!	!	!LO:DY:b:rj
8A\)	.	4r	.	4r	.	12cc\L	p
!	!	!	!	!	!	!	!LO:HP:b
.	.	.	.	.	.	12dd\	<
8r	.	.	.	.	.	.	.
.	.	.	.	.	.	12cc\J	.
!	!	!	!LO:DY:b:rj	!	!	!	!
!	!	!	!LO:HP:b	!	!LO:DY:b:rj	!	!
4r	.	(>4a-X\	p <	(>4cc\	p	12ee\L	.
.	.	.	.	.	.	12ffn\	.
!	!	!	!	!	!LO:HP:b	!	!
.	.	.	.	.	<	12ee\J	.
2r	.	4g\)	.	4b\)	.	12ff\L	.
.	.	.	.	.	.	12gg\	.
.	.	.	.	.	.	12ff\J	.
*	*	*	*	*Xtuplet	*	*	*
.	.	(>4fn\	.	12b\L	.	12gg\L	.
.	.	.	.	12b\	.	12aa\	.
.	.	.	[	12b\J	[	12gg\J	[
!!LO:LB:g=original
=137	=137	=137	=137	=137	=137	=137	=137
1r	.	4e\)	.	(>4dd\	.	12gg#X\L	.
.	.	.	.	.	.	12aa\	.
!	!	!	!	!	!	!	!LO:HP:b
.	.	.	.	.	.	12gg#\J	<
.	.	8r	.	[>4ffn\	.	12aa\L	.
.	.	.	.	.	.	12bb\	.
!	!	!	!LO:DY:b:rj	!	!	!	!
.	.	(>32dd\LLL	f	.	.	.	.
.	.	32cc\	.	.	.	.	.
.	.	.	.	.	.	12aa\J	.
.	.	32b\	.	.	.	.	.
.	.	32a\JJJ)	.	.	.	.	.
.	.	8g\	.	8ff\])	.	12bb\L	.
.	.	.	.	.	.	12ccc\	.
.	.	8r	.	8r	.	.	.
.	.	.	.	.	.	12bb\J	.
.	.	4r	.	8r	.	12ddd\L	.
.	.	.	.	.	.	12eee\	.
!	!	!	!	!	!LO:DY:b	!	!
.	.	.	.	(<32b/LLL	f	.	.
.	.	.	.	32a/	.	.	.
.	.	.	.	.	.	12ddd\J	[
.	.	.	.	32g/	.	.	.
.	.	.	.	32fn/JJJ	.	.	.
=138	=138	=138	=138	=138	=138	=138	=138
!	!	!	!	!	!	!	!LO:DY:b
1r	.	8.r	.	8e/)	.	12ggg\L	f
.	.	.	.	.	.	12aaa\	.
.	.	.	.	8r	.	.	.
.	.	.	.	.	.	12ggg\J	.
*	*	*tuplet	*	*	*	*	*
!	!	!LO:TUP:a	!LO:DY:b:rj	!	!	!	!
.	.	(>48g\LLL	f	.	.	.	.
.	.	48a\	.	.	.	.	.
.	.	48b\JJJ	.	.	.	.	.
!	!	!	!	!	!	!	!LO:HP:b
.	.	8cc\)	.	8r	.	12eee\L	>
.	.	.	.	.	.	12fffn\	.
!	!	!	!	!	!LO:DY:b:rj	!	!
.	.	8r	.	(32ee\LLL	f	.	.
.	.	.	.	32dd\	.	.	.
.	.	.	.	.	.	12eee\J	.
.	.	.	.	32cc\	.	.	.
.	.	.	.	32b\JJJ	.	.	.
.	.	4r	.	8a/)	.	12ccc\L	.
.	.	.	.	.	.	12ddd\	.
.	.	.	.	8r	.	.	.
.	.	.	.	.	.	12ccc\J	.
.	.	8r	.	4r	.	12aa\L	.
.	.	.	.	.	.	12bb\	.
!	!	!	!LO:DY:b:rj	!	!	!	!
.	.	(>32fn\LLL	f	.	.	.	.
.	.	32e\	.	.	.	.	.
.	.	.	.	.	.	12aa\J	.
.	.	32d\	.	.	.	.	.
.	.	32c\JJJ	.	.	.	.	.
=139	=139	=139	=139	=139	=139	=139	=139
4r	.	8B/)	.	8.r	.	12gg\L	.
.	.	.	.	.	.	12aa\	.
.	.	8r	.	.	.	.	.
.	.	.	.	.	.	12gg\J	.
*	*	*	*	*tuplet	*	*	*
!	!	!	!	!LO:TUP:a	!LO:DY:b:rj	!	!
.	.	.	.	(<48G/LLL	f	.	.
.	.	.	.	48A/	.	.	.
.	.	.	.	48B/JJJ	.	.	.
8.r	.	8.r	.	8c/)	.	12ee\L	.
.	.	.	.	.	.	12ffn\	.
.	.	.	.	8r	.	.	.
.	.	.	.	.	.	12ee\J	]
!	!	!	!LO:DY:b:rj	!	!	!	!
(>32E\LLL	f	(>32g\LL	f	.	.	.	.
32Fn\JJJ	.	32a\JJ	.	.	.	.	.
8G\)	.	8b\)	.	2r	.	12dd\L	.
.	.	.	.	.	.	12ee\	.
8r	.	8r	.	.	.	.	.
.	.	.	.	.	.	12dd\J	.
4r	.	4r	.	.	.	12b\L	.
.	.	.	.	.	.	12cc\	.
.	.	.	.	.	.	12b\J	.
!!LO:REH:t=K
=140	=140	=140	=140	=140	=140	=140	=140
!LO:TX:b:B:t=K:color=blue:mod=	!LO:DY:b:rj	!	!LO:DY:b:rj	!	!LO:DY:b:rj	!LO:TX:a:B:t=K:color=blue:mod=	!LO:DY:b
!LO:MO:mod=!null:null	!	!	!	!	!	!	!
!LO:TX:b:i:t=marcato	!	!	!	!	!	!	!
4E 4GG 4CC/	ff	4g 4G 4C/	ff	4cc 4e 4G/	ff	12cc\L	ff
.	.	.	.	.	.	12b\	.
!LO:MO:null:mod=!LO&colon;TX&colon;b&colon;i&colon;t=marcato	!	!	!	!LO:MO:mod=!LO&colon;TX&colon;b&colon;i&colon;t=marcato	!	!	!
!	!	!LO:TX:b:i:t=marcato	!	!LO:TX:a:i:t=marcato	!	!	!
.	.	.	.	.	.	12a\J	.
4E 4GG/	.	4b 4B\	.	4ee 4e 4G/	.	12g/L	.
.	.	.	.	.	.	12e/	.
.	.	.	.	.	.	12fn/J	.
4E 4GG 4CC/	.	4g 4G 4C/	.	4cc 4e 4G/	.	12g/L	.
.	.	.	.	.	.	12a/	.
.	.	.	.	.	.	12g/J	.
4E 4GG/	.	4b 4B\	.	4ee 4e 4G/	.	12e/L	.
.	.	.	.	.	.	12f/	.
.	.	.	.	.	.	12g/J	.
!!LO:PB:g=original
=141	=141	=141	=141	=141	=141	=141	=141
4E 4AA/	.	4a 4A 4C/	.	4cc 4e 4A/	.	12e/L	.
.	.	.	.	.	.	12fn/	.
.	.	.	.	.	.	12e/J	.
4A 4D 4FFn/	.	4a 4A 4D/	.	4dd 4fn 4A/	.	12d/L	.
.	.	.	.	.	.	12f/	.
.	.	.	.	.	.	12e/J	.
4B 4D 4GG/	.	4g 4B 4D/	.	4b 4d 4G/	.	12d/L	.
.	.	.	.	.	.	12e/	.
.	.	.	.	.	.	12d/J	.
4c 4D 4AA/	.	4fn 4c\	.	4g 4G/	.	12f/L	.
.	.	.	.	.	.	12d/	.
.	.	.	.	.	.	12c/J	.
=142	=142	=142	=142	=142	=142	=142	=142
4d 4G 4BB\	.	4fn 4G/	.	4gg 4g 4G/	.	12d/L	.
.	.	.	.	.	.	12a/	.
.	.	.	.	.	.	12g/J	.
4e 4G 4C\	.	8eL 8G 8C/	.	8ggL 8g 8c/	.	12g/L	.
.	.	.	.	.	.	12a/	.
.	.	8eJ 8G 8C/	.	8ggJ 8g 8c/	.	.	.
.	.	.	.	.	.	12g/J	.
4E 4GG 4CC/	.	4e 4G 4C/	.	4gg 4g 4c/	.	12g/L	.
.	.	.	.	.	.	12a/	.
.	.	.	.	.	.	12b/J	.
4E 4GG 4CC/	.	4cc 4e 4G\	.	4ee 4g 4c/	.	12cc/L	.
.	.	.	.	.	.	12b/	.
.	.	.	.	.	.	12a/J	.
=143	=143	=143	=143	=143	=143	=143	=143
4G 4C 4EE/	.	4g 4G 4C/	.	4cc 4e 4G/	.	12g/L	.
.	.	.	.	.	.	12a/	.
.	.	.	.	.	.	12g/J	.
4c 4E 4GG 4CC/	.	4cc/ 4e/ 4G/	.	4ee 4g 4G/	.	12e/L	.
.	.	.	.	.	.	12fn/	.
.	.	.	.	.	.	12g/J	.
4B 4D 4GG\	.	4b 4d 4G\	.	4dd 4d 4G/	.	12g/L	.
.	.	.	.	.	.	12a/	.
.	.	.	.	.	.	12g/J	.
4r	.	4r	.	4r	.	12b/L	.
.	.	.	.	.	.	12a/	.
.	.	.	.	.	.	12g/J	.
=144	=144	=144	=144	=144	=144	=144	=144
4D 4FFn/	.	4a 4d 4Fn\	.	4aa 4a 4d\	.	12a/L	.
.	.	.	.	.	.	12b/	.
.	.	.	.	.	.	12cc/J	.
8DL 8FF/	.	8aL 8d 8F\	.	8aaL 8a 8d\	.	12dd\L	.
.	.	.	.	.	.	12cc\	.
8DJ 8FF/	.	8aJ 8d 8F\	.	8aaJ 8a 8d\	.	.	.
.	.	.	.	.	.	12b\J	.
4D 4FF/	.	4a 4d 4F\	.	4aa 4a 4d\	.	12a/L	.
.	.	.	.	.	.	12g/	.
.	.	.	.	.	.	12f#/J	.
4E 4AA/	.	4a 4g 4A\	.	4gg 4a 4c#X/	.	12e/L	.
.	.	.	.	.	.	12d/	.
.	.	.	.	.	.	12c#X/J	.
=145	=145	=145	=145	=145	=145	=145	=145
4Fn 4AA 4DD/	.	4a 4fn 4A 4D/	.	4ffn 4a 4d/	.	12d/L	.
.	.	.	.	.	.	12e/	.
.	.	.	.	.	.	12f#/J	.
4C 4EE/	.	4cc 4c 4C\	.	4ee 4g 4G/	.	12g/L	.
.	.	.	.	.	.	12a/	.
.	.	.	.	.	.	12g/J	.
4C 4FFn/	.	4cc 4d 4A\	.	4dd 4fn 4A/	.	12a\L	.
.	.	.	.	.	.	12b\	.
.	.	.	.	.	.	12cc\J	.
4C 4DD/	.	4cc/ 4c/ 4C/	.	4ffn 4a 4d/	.	12dd\L	.
.	.	.	.	.	.	12ee\	.
.	.	.	.	.	.	12dd\J	.
!!LO:LB:g=original
=146	=146	=146	=146	=146	=146	=146	=146
4B 4E 4GG\	.	4b 4B\	.	4ee 4b 4e 4G/	.	12ee\L	.
.	.	.	.	.	.	12dd\	.
.	.	.	.	.	.	12b\J	.
4c 4E 4AA\	.	8aL 8c\	.	8ccL 8e 8A/	.	12a/L	.
.	.	.	.	.	.	12b/	.
.	.	8aJ 8c\	.	8ccJ 8e 8A/	.	.	.
.	.	.	.	.	.	12cc/J	.
4d 4G 4BB\	.	4g 4B\	.	4gg 4g 4G/	.	12dd\L	.
.	.	.	.	.	.	12cc\	.
.	.	.	.	.	.	12b\J	.
4Fn 4AA 4CC/	.	4cc 4fn 4A\	.	4ffn 4a 4c/	.	12a/L	.
.	.	.	.	.	.	12b/	.
.	.	.	.	.	.	12a/J	.
=147	=147	=147	=147	=147	=147	=147	=147
4G 4BB 4EE/	.	4b 4g 4G\	.	4ee 4g 4B/	.	12g/L	.
.	.	.	.	.	.	12b/	.
.	.	.	.	.	.	12a/J	.
4B 4D 4GG/	.	4b 4fn 4G\	.	4dd 4fn 4G/	.	12g/L	.
.	.	.	.	.	.	12a/	.
.	.	.	.	.	.	12g/J	.
4c 4E 4GG 4CC/	.	4cc 4e 4G 4C\	.	4cc 4e 4G/	.	12g/L	.
.	.	.	.	.	.	12a/	.
.	.	.	.	.	.	12b/J	.
!	!	!LO:TUP:a	!	!	!	!	!
4r	.	12r	.	4r	.	8cc\	.
!	!	!	!LO:DY:b:rj	!	!	!	!
.	.	12e\L	p	.	.	.	.
.	.	.	.	.	.	8r	.
.	.	12fnX\J	.	.	.	.	.
=148	=148	=148	=148	=148	=148	=148	=148
*	*	*Xtuplet	*	*	*	*	*
!	!	!	!	!LO:MO:null:mod=!LO&colon;TX&colon;a&colon;i&colon;t=pizz.	!	!LO:MO:null:mod=!LO&colon;TX&colon;a&colon;i&colon;t=pizz.	!
!	!	!	!	!LO:TX:b:t=pizz	!LO:DY:b:rj	!LO:TX:b:t=pizz	!LO:DY:b:rj
1r	.	12g\L	.	4g/	p	4b\	p
.	.	12d\	.	.	.	.	.
.	.	12G\J	.	.	.	.	.
.	.	12A-X/L	.	4b/	.	4dd\	.
.	.	12B-X/	.	.	.	.	.
.	.	12A-/J	.	.	.	.	.
.	.	12G/L	.	4g/	.	4b\	.
.	.	12A-/	.	.	.	.	.
.	.	12G/J	.	.	.	.	.
.	.	12A-/L	.	4b/	.	4dd\	.
.	.	12B-/	.	.	.	.	.
.	.	12A-/J	.	.	.	.	.
=149	=149	=149	=149	=149	=149	=149	=149
!	!LO:DY:b	!	!	!	!	!	!
(>8qGG/	mf	.	.	.	.	.	.
4G\)	.	12G/L	.	4dd\	.	4ffn\	.
.	.	12B/	.	.	.	.	.
.	.	12c/J	.	.	.	.	.
8.Fn\L	.	12d\L	.	4b\	.	4aa-X\	.
.	.	12e-X\	.	.	.	.	.
.	.	12fn\J	.	.	.	.	.
16D\Jk	.	.	.	.	.	.	.
4E-X\	.	12g\L	.	4ee-X\	.	4gg\	.
.	.	12a-X\	.	.	.	.	.
.	.	12g\J	.	.	.	.	.
8.C/L	.	12e-\L	.	4r	.	4r	.
.	.	12g\	.	.	.	.	.
.	.	12f\J	.	.	.	.	.
16D/Jk	.	.	.	.	.	.	.
=150	=150	=150	=150	=150	=150	=150	=150
4E-X\	.	12e-X\L	.	4e-X/	.	4g/	.
.	.	12B-X\	.	.	.	.	.
.	.	12c\J	.	.	.	.	.
4r	.	12d-X\L	.	4g/	.	4b-X/	.
.	.	12e-\	.	.	.	.	.
.	.	12d-\J	.	.	.	.	.
2r	.	12d-\L	.	4e-/	.	4g/	.
.	.	12B-\	.	.	.	.	.
.	.	12c\J	.	.	.	.	.
.	.	12d-\L	.	4g/	.	4b-/	.
.	.	12e-\	.	.	.	.	.
.	.	12d-\J	.	.	.	.	.
!!LO:LB:g=original
=151	=151	=151	=151	=151	=151	=151	=151
!	!LO:DY:b:rj	!	!	!	!LO:HP:b	!	!LO:HP:b
4E-X\	mf	12d-X\L	.	4b-X\	<	4dd-X\	<
!	!	!	!LO:HP:b	!	!	!	!
.	.	12B-X\	<	.	.	.	.
.	.	12c-X\J	.	.	.	.	.
!	!LO:HP:b	!	!	!	!	!LO:N:acc=-	!
!	!	!	!	!	!	!LO:MO:mod=4ff-	!
8.BB-X/L	>	12d-\L	.	4g/	[	4ffn\	[
.	.	12e-X\	.	.	.	.	.
.	.	12d-\J	[	.	.	.	.
16C-X/Jk	.	.	.	.	.	.	.
!	!	!	!LO:HP:b	!	!	!	!
4D-X/	.	12B-\L	>	4b- 4g/	.	4ee-X\	.
.	.	12c-\	.	.	.	.	.
.	.	12d-\J	.	.	.	.	.
8.C-/L	]	12e-\L	.	4r	.	4r	.
.	.	12fn\	.	.	.	.	.
.	.	12g\J	]	.	.	.	.
16BB-/Jk	.	.	.	.	.	.	.
!!LO:REH:t=L
=152	=152	=152	=152	=152	=152	=152	=152
*Xtuplet	*	*	*	*	*	*	*
!	!	!	!	!	!	!LO:TX:a:B:t=L:color=blue:mod=	!
!	!	!	!	!LO:MO:mod=!LO&colon;TX&colon;a&colon;i&colon;t=arco	!	!LO:MO:mod=!LO&colon;TX&colon;a&colon;i&colon;t=arco	!
!LO:TX:b:B:t=L:color=blue:mod=	!LO:DY:b:rj	!	!LO:DY:b:rj	!LO:TX:a:t=arco	!LO:DY:b:rj	!LO:TX:a:t=arco	!LO:DY:b:rj
12AA-X/L	p	4g#X'>\	p	4bn'>\	p	4dd#X'>\	p
12GGn/	.	.	.	.	.	.	.
12GG#X/J	.	.	.	.	.	.	.
12GG#/L	.	8g#'>\L	.	8b'>\L	.	8dd#'>\L	.
12AA#X/	.	.	.	.	.	.	.
.	.	8g#'>\J	.	8b'>\J	.	8dd#'>\J	.
12GG#/J	.	.	.	.	.	.	.
12GG#/L	.	4g#'>\	.	4b'>\	.	4dd#'>\	.
12AA#/	.	.	.	.	.	.	.
12GG#/J	.	.	.	.	.	.	.
12GG#/L	.	4d#X'>\	.	4g#X'</	.	4b'>\	.
12AA#/	.	.	.	.	.	.	.
12GG#/J	.	.	.	.	.	.	.
=153	=153	=153	=153	=153	=153	=153	=153
*tremolo	*	*	*	*	*	*	*
12GG#X/L	.	4B'</	.	4d#X/	.	4g#X'</	.
12GG#/	.	.	.	.	.	.	.
12GG#/J	.	.	.	.	.	.	.
12GG#/L	.	4d#X'>\	.	4g#X/	.	4b'</	.
12GG#/	.	.	.	.	.	.	.
12GG#/J	.	.	.	.	.	.	.
12GG#/L	.	4c#X'</	.	4f##X/	.	4a#X'</	.
12GG#/	.	.	.	.	.	.	.
12GG#/J	.	.	.	.	.	.	.
12GG#/L	.	4G#X/	.	4B/	.	4d#X'</	.
12GG#/	.	.	.	.	.	.	.
12GG#/J	.	.	.	.	.	.	.
=154	=154	=154	=154	=154	=154	=154	=154
12GG#X/L	.	4g#X\	.	4b'>\	.	4dd#X'>\	.
12GG#/	.	.	.	.	.	.	.
12GG#/J	.	.	.	.	.	.	.
12GG#/L	.	8g#'>\L	.	8b'>\L	.	8dd#'>\L	.
12GG#/	.	.	.	.	.	.	.
.	.	8g#'>\J	.	8b'>\J	.	8dd#'>\J	.
12GG#/J	.	.	.	.	.	.	.
12GG#/L	.	4g#\	.	4b/	.	4dd#'>\	.
12GG#/	.	.	.	.	.	.	.
12GG#/J	.	.	.	.	.	.	.
12GG#/L	.	4G#X/	.	4d#X/	.	4b'>\	.
12GG#/	.	.	.	.	.	.	.
12GG#/J	.	.	.	.	.	.	.
=155	=155	=155	=155	=155	=155	=155	=155
12BB/L	.	4G#X'</	.	4d#X'</	.	4g#X'</	.
12BB/	.	.	.	.	.	.	.
12BB/J	.	.	.	.	.	.	.
12C#X/L	.	4G#'</	.	4e'</	.	4b'</	.
12C#/	.	.	.	.	.	.	.
12C#/J	.	.	.	.	.	.	.
12D#X/L	.	4G#'</	.	4c#X'</	.	4a#X'</	.
12D#/	.	.	.	.	.	.	.
12D#/J	.	.	.	.	.	.	.
12C#X/L	.	4F##X'</	.	4A#Xo</	.	4d#X'</	.
12C#/	.	.	.	.	.	.	.
12C#/J	.	.	.	.	.	.	.
!!LO:LB:g=original
=156	=156	=156	=156	=156	=156	=156	=156
12BB/L	.	4G#X/	.	4g#X 4B/	.	4dd#X 4d#X/	.
12BB/	.	.	.	.	.	.	.
12BB/J	.	.	.	.	.	.	.
!	!LO:HP:b	!	!	!	!	!	!
!	!LO:DY:b:rj	!	!LO:DY:b:rj	!	!LO:DY:b:rj	!	!LO:DY:b:rj
12BB/L	f >	8GnL 8E^</	f	8gnL 8B^>/	f	8eeL 8e^>/	f
12BB/	.	.	.	.	.	.	.
!	!	!	!LO:HP:b	!	!LO:HP:b	!	!LO:HP:b
.	.	8GJ 8E/	>	8gJ 8B/	>	8eeJ 8e/	>
12BB/J	.	.	.	.	.	.	.
12BB/L	.	4G 4E/	.	4g 4B/	.	4ee 4e/	.
12BB/	.	.	.	.	.	.	.
12BB/J	.	.	.	.	.	.	.
!	!	!	!LO:MO:mod=]]	!	!LO:MO:mod=]]	!	!LO:MO:mod=]]
12BB/L	.	4G 4E/	]	4g 4B/	]	4b 4e/	]
12BB/	.	.	.	.	.	.	.
12BB/J	]	.	.	.	.	.	.
=157	=157	=157	=157	=157	=157	=157	=157
!	!LO:DY:b:rj	!	!LO:DY:b:rj	!	!LO:DY:b:rj	!	!LO:DY:b:rj
12BB/L	p	4G#X/	p	4g#X 4B/	p	4dd#X\	p
12BB/	.	.	.	.	.	.	.
12BB/J	.	.	.	.	.	.	.
!	!LO:DY:b:rj	!	!LO:DY:b:rj	!	!LO:DY:b:rj	!	!LO:DY:b:rj
!	!LO:HP:b	!	!	!	!	!	!
12BB/L	f >	8GnL 8E^</	f	8gnL 8B^</	f	8eeL 8e^</	f
12BB/	.	.	.	.	.	.	.
!	!	!	!LO:HP:b	!	!LO:HP:b	!	!LO:HP:b
.	.	8GJ 8E/	>	8gJ 8B/	>	8eeJ 8e/	>
12BB/J	.	.	.	.	.	.	.
12BB/L	.	4G 4E/	.	4g 4B/	.	4ee 4e/	.
12BB/	.	.	.	.	.	.	.
12BB/J	.	.	.	.	.	.	.
!	!LO:MO:mod=]]	!	!	!	!	!	!
12BB/L	]	4A 4E/	.	4f# 4cn/	.	4ccn 4e/	.
12BB/	.	.	.	.	.	.	.
12BB/J	.	.	]	.	]	.	]
*Xtremolo	*	*	*	*	*	*	*
=158	=158	=158	=158	=158	=158	=158	=158
8BB/	.	12F#/L	.	8f# 8B/	.	8b 8d#X/	.
.	.	12G/	.	.	.	.	.
8r	.	.	.	8r	.	8r	.
.	.	12A/J	.	.	.	.	.
!	!LO:DY:b:rj	!	!	!	!LO:DY:b:rj	!	!LO:DY:b:rj
8EL 8GG^</	f	12B^</L	.	8eeL 8e 8G^</	f	8bbL 8b 8e^>\	f
.	.	12c/	.	.	.	.	.
8EJ 8GG/	.	.	.	8eeJ 8e/	.	8bbJ 8b 8e\	.
.	.	12B/J	.	.	.	.	.
4E 4GG/	.	12B/L	.	4ee 4e/	.	4bb 4b 4e\	.
.	.	12c/	.	.	.	.	.
.	.	12B/J	.	.	.	.	.
4C/	.	12c\L	.	4ee 4e/	.	4aa 4a\	.
.	.	12d\	.	.	.	.	.
.	.	12c\J	.	.	.	.	.
=159	=159	=159	=159	=159	=159	=159	=159
4BB/	.	12e\L	.	4ee 4e/	.	4gg 4b\	.
.	.	12d\	.	.	.	.	.
.	.	12c\J	.	.	.	.	.
8EL 8GG^</	.	12B^</L	.	8eeL 8e^</	.	8bbL 8b 8e^>\	.
.	.	12c/	.	.	.	.	.
!	!LO:HP:b	!	!	!	!LO:HP:b	!	!LO:HP:b
8EJ 8GG/	<	.	.	8eeJ 8e/	<	8bbJ 8b 8e\	<
!	!	!	!LO:HP:b	!	!	!	!
.	.	12B/J	<	.	.	.	.
4E 4GG/	.	12B/L	.	4ee 4e/	.	4bb 4b 4e\	.
.	.	12c/	.	.	.	.	.
.	.	12B/J	.	.	.	.	.
!	!LO:MO:mod=[[	!	!LO:MO:mod=[[	!	!LO:MO:mod=[[	!	!
4C/	[	12c\L	[	4ee 4e/	[	4aa 4a\	.
.	.	12d\	.	.	.	.	[
.	.	12c\J	.	.	.	.	.
=160	=160	=160	=160	=160	=160	=160	=160
!	!	!	!LO:DY:b	!	!	!	!
4BB/	.	12e\L	ff	4ee 4e/	.	4gg 4b\	.
.	.	12d\	.	.	.	.	.
.	.	12c\J	.	.	.	.	.
!	!LO:DY:b:rj	!	!	!	!LO:DY:b:rj	!	!LO:DY:b:rj
4B 4E 4GG/	ff	12B/L	.	4bb 4b 4e\	ff	4eee\	ff
.	.	12c/	.	.	.	.	.
.	.	12B/J	.	.	.	.	.
4c 4E 4AA/	.	12c\L	.	4aa 4cc 4e\	.	4ccc 4ee 4a\	.
.	.	12d\	.	.	.	.	.
.	.	12c\J	.	.	.	.	.
4G 4BB/	.	12e/L	.	4gg 4b 4e\	.	4bb 4ee 4g\	.
.	.	12G/	.	.	.	.	.
.	.	12A/J	.	.	.	.	.
!!LO:PB:g=original
=161	=161	=161	=161	=161	=161	=161	=161
4C/	.	12c\L	.	4ee 4a 4e 4c/	.	4aa 4a\	.
.	.	12d\	.	.	.	.	.
.	.	12c\J	.	.	.	.	.
4EE/	.	12B/L	.	4ee 4g 4B/	.	4gg 4b 4e/	.
.	.	12A/	.	.	.	.	.
.	.	12G/J	.	.	.	.	.
4FF#/	.	12A/L	.	4dd#X 4f# 4A/	.	4ff# 4a/	.
.	.	12B/	.	.	.	.	.
.	.	12c/J	.	.	.	.	.
4GG/	.	12B/L	.	4ee 4e 4G/	.	4ee 4b 4e/	.
.	.	12A/	.	.	.	.	.
.	.	12B/J	.	.	.	.	.
=162	=162	=162	=162	=162	=162	=162	=162
!	!LO:DY:a	!	!	!	!LO:DY:a	!	!LO:DY:a
4E 4AA/	sfz	12c\L	.	4ee 4f#/	sfz	4ff# 4cc\	sfz
.	.	12d\	.	.	.	.	.
.	.	12e\J	.	.	.	.	.
4r	.	12e#X\L	.	4r	.	4r	.
.	.	12f#\	.	.	.	.	.
.	.	12e#\J	.	.	.	.	.
2r	.	12f#\L	.	2r	.	2r	.
.	.	12e#\	.	.	.	.	.
.	.	12f#\J	.	.	.	.	.
.	.	12e#\L	.	.	.	.	.
.	.	12f#\	.	.	.	.	.
.	.	12e#\J	.	.	.	.	.
=163	=163	=163	=163	=163	=163	=163	=163
!	!LO:DY:a	!LO:TX:a:i:t=ſ:rj	!	!	!LO:DY:a	!	!LO:DY:a
4BB/	sfz	8en\	.	4ee 4d 4G/	sfz	4gg 4dd 4g\	sfz
.	.	8r	.	.	.	.	.
!	!	!	!LO:DY:b	!	!	!	!
4r	.	12d#X^>\L	f	4r	.	4r	.
.	.	12e\	.	.	.	.	.
.	.	12d#\J	.	.	.	.	.
2r	.	12e\L	.	2r	.	2r	.
.	.	12d#\	.	.	.	.	.
.	.	12e\J	.	.	.	.	.
.	.	12d#\L	.	.	.	.	.
.	.	12e\	.	.	.	.	.
.	.	12d#\J	.	.	.	.	.
=164	=164	=164	=164	=164	=164	=164	=164
!	!LO:DY:a	!	!	!	!LO:DY:a	!	!LO:DY:a
4C 4CC/	sfz	8dn\	.	4ff#X 4a 4d/	sfz	4aa 4dd 4f#\	sfz
.	.	8r	.	.	.	.	.
!	!	!	!LO:DY:b	!	!	!	!
4r	.	12c#X^>\L	f	4r	.	4r	.
.	.	12d\	.	.	.	.	.
.	.	12c#\J	.	.	.	.	.
2r	.	12d\L	.	2r	.	2r	.
.	.	12c#\	.	.	.	.	.
.	.	12d\J	.	.	.	.	.
.	.	12c#\L	.	.	.	.	.
.	.	12d\	.	.	.	.	.
.	.	12cn\J	.	.	.	.	.
=165	=165	=165	=165	=165	=165	=165	=165
!	!LO:DY:a	!	!	!	!LO:DY:a	!	!LO:DY:a
4F# 4BB 4DD#X/	sfz	8B/	.	4ff# 4a\	sfz	4bb 4b 4f#\	sfz
.	.	8r	.	.	.	.	.
4r	.	12c^>\L	.	4r	.	4r	.
.	.	12d\	.	.	.	.	.
.	.	12c\J	.	.	.	.	.
2r	.	12c\L	.	2r	.	2r	.
.	.	12d\	.	.	.	.	.
.	.	12c\J	.	.	.	.	.
.	.	12c\L	.	.	.	.	.
.	.	12d\	.	.	.	.	.
.	.	12c\J	.	.	.	.	.
!!LO:LB:g=original
!!LO:REH:t=M
=166	=166	=166	=166	=166	=166	=166	=166
!	!LO:DY:a	!	!LO:DY:a	!	!LO:DY:a	!	!LO:DY:a
4F# 4BB 4DD#X/	sfz	8B/	sfz	4ff# 4a\	sfz	4bb 4b 4f#\	sfz
.	.	8r	.	.	.	.	.
!LO:TX:b:B:t=M:color=blue:mod=	!	!	!LO:DY:b	!	!	!LO:TX:a:B:t=M:color=blue:mod=	!
4r	.	12c^>\L	f	4r	.	4r	.
.	.	12d\	.	.	.	.	.
.	.	12c\J	.	.	.	.	.
!	!	!	!LO:HP:b	!	!	!	!
2r	.	12c\L	>	2r	.	2r	.
.	.	12d\	.	.	.	.	.
.	.	12c\J	.	.	.	.	.
.	.	12c\L	.	.	.	.	.
.	.	12d\	.	.	.	.	.
.	.	12c\J	.	.	.	.	.
=167	=167	=167	=167	=167	=167	=167	=167
*	*	*	*	*Xtuplet	*	*	*
!	!	!	!	!	!LO:DY:b:rj	!	!
1r	.	12c\L	.	12A/L	mf	2r	.
.	.	12d\	.	12B/	.	.	.
!	!	!	!	!	!LO:HP:b:t=diminuendo	!	!
.	.	12c\J	.	12A/J	>	.	.
.	.	12c\L	.	12A/L	.	.	.
.	.	12d\	.	12B/	.	.	.
.	.	12c\J	]	12A/J	.	.	.
!	!	!	!	!	!	!	!LO:DY:b:rj
.	.	8c\	.	12A/L	.	12c/L	p
.	.	.	.	12B/	.	12d/	.
.	.	8r	.	.	.	.	.
.	.	.	.	12A/J	.	12c/J	.
.	.	4r	.	12A/L	.	12c/L	.
.	.	.	.	12B/	.	12d/	.
.	.	.	.	12A/J	.	12c/J	.
=168	=168	=168	=168	=168	=168	=168	=168
*	*	*	*	*rep	*	*	*
!	!	!	!LO:DY:b	!	!LO:DY:b:rj	!	!
1r	.	[<1E-X	p	12A/L	p	12c/L	.
.	.	.	.	12B/	.	12d/	.
.	.	.	.	12A/J	.	12c/J	.
.	.	.	.	12A/L	.	12c/L	.
.	.	.	.	12B/	.	12d/	.
.	.	.	.	12A/J	.	12c/J	.
.	.	.	.	12A/L	.	12c/L	.
.	.	.	.	12B/	.	12d/	.
.	.	.	.	12A/J	.	12c/J	.
.	.	.	.	12A/L	.	12c/L	.
.	.	.	.	12B/	.	12d/	.
.	.	.	.	12A/J	.	12c/J	.
*	*	*	*	*Xrep	*	*	*
=169	=169	=169	=169	=169	=169	=169	=169
!	!LO:DY:b:rj	!	!	!	!	!	!
[<1FFn	p	1E-]	.	12A/L	.	12c/L	.
.	.	.	.	12B-X/	.	12d-X/	.
.	.	.	.	12A/J	.	12c/J	.
.	.	.	.	12A/L	.	12c/L	.
.	.	.	.	12B-/	.	12d-/	.
.	.	.	.	12A/J	.	12c/J	.
.	.	.	.	12A/L	.	12c/L	.
.	.	.	.	12B-/	.	12d-/	.
.	.	.	.	12A/J	.	12c/J	.
.	.	.	.	12A/L	.	12c/L	.
.	.	.	.	12B-/	.	12d-/	.
.	.	.	.	12A/J	.	12c/J	.
!!LO:LB:g=original
=170	=170	=170	=170	=170	=170	=170	=170
1FFnX_<	.	[<1D-X	.	12B-X/L	.	12d-X/L	.
.	.	.	.	12c/	.	12e-X/	.
.	.	.	.	12B-/J	.	12d-/J	.
.	.	.	.	12B-/L	.	12d-/L	.
.	.	.	.	12c/	.	12e-/	.
.	.	.	.	12B-/J	.	12d-/J	.
.	.	.	.	12B-/L	.	12d-/L	.
.	.	.	.	12c/	.	12e-/	.
.	.	.	.	12B-/J	.	12d-/J	.
.	.	.	.	12B-/L	.	12d-/L	.
.	.	.	.	12c/	.	12e-/	.
.	.	.	.	12B-/J	.	12d-/J	.
=171	=171	=171	=171	=171	=171	=171	=171
1FF_<	.	(<1D-]	.	12B-X/L	.	12en/L	.
.	.	.	.	12d-X/	.	12fn/	.
.	.	.	.	12B-/J	.	12e/J	.
.	.	.	.	12B-/L	.	12e/L	.
.	.	.	.	12d-/	.	12f/	.
.	.	.	.	12B-/J	.	12e/J	.
.	.	.	.	12B-/L	.	12e/L	.
.	.	.	.	12d-/	.	12f/	.
.	.	.	.	12B-/J	.	12e/J	.
.	.	.	.	12B-/L	.	12e/L	.
.	.	.	.	12d-/	.	12f/	.
.	.	.	.	12B-/J	.	12e/J	.
=172	=172	=172	=172	=172	=172	=172	=172
4FF/]	.	4C/)	.	4A/	.	12fn/L	.
.	.	.	.	.	.	12g-X/	.
.	.	.	.	.	.	12f/J	.
4r	.	4r	.	4r	.	12a/L	.
.	.	.	.	.	.	12b-X/	.
.	.	.	.	.	.	12a/J	.
!	!	!	!	!	!	!	!LO:HP:b
2r	.	2r	.	2r	.	12cc\L	>
.	.	.	.	.	.	12dd-X\	.
.	.	.	.	.	.	12cc\J	.
.	.	.	.	.	.	12een\L	.
.	.	.	.	.	.	12ffn\	.
.	.	.	.	.	.	12ee\J	.
=173	=173	=173	=173	=173	=173	=173	=173
1r	.	1r	.	1r	.	12ffn\L	.
.	.	.	.	.	.	12gg-X\	.
.	.	.	.	.	.	12ff\J	.
.	.	.	.	.	.	12aa\L	.
.	.	.	.	.	.	12bb-X\	.
.	.	.	.	.	.	12aa\J	.
.	.	.	.	.	.	12ccc\L	.
.	.	.	.	.	.	12ddd-X\	.
.	.	.	.	.	.	12ccc\J	.
.	.	.	.	.	.	12eee\L	.
.	.	.	.	.	.	12fffn\	.
.	.	.	.	.	.	12eee\J	]
!!LO:LB:g=original
!!LO:REH:t=N
=174	=174	=174	=174	=174	=174	=174	=174
!LO:TX:b:B:t=N:color=blue:mod=	!	!	!	!	!	!LO:TX:a:B:t=N:color=blue:mod=	!LO:DY:b
1r	.	1r	.	1r	.	1fffntt>	pp
=175	=175	=175	=175	=175	=175	=175	=175
1r	.	1r	.	1r	.	1fffnttt>	.
=176	=176	=176	=176	=176	=176	=176	=176
!	!	!LO:MO:null:mod=!LO&colon;TX&colon;a&colon;i&colon;t=pizz.	!	!LO:MO:null:mod=!LO&colon;TX&colon;a&colon;i&colon;t=pizz.	!	!	!
!	!	!LO:TX:b:t=pizz	!LO:DY:b:rj	!LO:TX:a:t=pizz	!LO:DY:b:rj	!	!
1r	.	4dd-X\	pp	4ffn\	pp	1fffnttt>	.
.	.	8dd-\L	.	8ff\L	.	.	.
.	.	8dd-\J	.	8ff\J	.	.	.
.	.	4dd-\	.	4ff\	.	.	.
.	.	4b-X\	.	4dd-X\	.	.	.
=177	=177	=177	=177	=177	=177	=177	=177
1r	.	4g-X\	.	4b-X\	.	1fffnttt>	.
.	.	4fn\	.	4dd-X\	.	.	.
.	.	4e\	.	4cc\	.	.	.
.	.	4e-X\	.	4fn/	.	.	.
=178	=178	=178	=178	=178	=178	=178	=178
1r	.	4d-X\	.	4ffn\	.	1dddnttt>	.
.	.	8b-X\L	.	8ff\L	.	.	.
.	.	8a-X\J	.	8ff\J	.	.	.
.	.	4g-X\	.	4ff\	.	.	.
.	.	4fn\	.	4dd-X\	.	.	.
=179	=179	=179	=179	=179	=179	=179	=179
1r	.	4d-X\	.	4b-X\	.	2fffntt>\	.
.	.	4fn\	.	4dd-X\	.	.	.
!	!	!	!	!	!	!LO:TX:a:t=P:problem=drugi bemol pod trylem	!
.	.	4e-X\	.	4cc\	.	2ggg-X\ttt>	.
.	.	4d-\	.	4b-X\	.	.	.
=180	=180	=180	=180	=180	=180	=180	=180
1r	.	4c\	.	4a-X/	.	1aaa-XTT>	.
.	.	4r	.	4r	.	.	.
.	.	2r	.	2r	.	.	.
=181	=181	=181	=181	=181	=181	=181	=181
1r	.	1r	.	1r	.	1ggg#XTT>	.
!!LO:PB:g=original
=182	=182	=182	=182	=182	=182	=182	=182
!	!	!LO:MO:mod=!LO&colon;TX&colon;b&colon;i&colon;t=arco	!	!LO:MO:mod=!LO&colon;TX&colon;b&colon;i&colon;t=arco	!	!	!
!	!	!LO:TX:b:t=arco	!LO:DY:b:rj	!LO:TX:a:t=arco	!LO:DY:b:rj	!	!
1r	.	4ee#X'>\	pp	4gg#X'>\	pp	1ggg#XTT>	.
.	.	8ee#'>\L	.	8gg#'>\L	.	.	.
.	.	8ee#'>\J	.	8gg#'>\J	.	.	.
.	.	4ee#'>\	.	4gg#'>\	.	.	.
.	.	4cc#X'>\	.	4ee#X'>\	.	.	.
=183	=183	=183	=183	=183	=183	=183	=183
1r	.	4a#X'>\	.	4cc#X'>\	.	1ggg#XTTT>	.
.	.	4g#X'>\	.	4ee#X'>\	.	.	.
.	.	4f#'>\	.	4dd#X'>\	.	.	.
.	.	8e#X'>\L	.	4g#X'</	.	.	.
.	.	8d#X'>\J	.	.	.	.	.
=184	=184	=184	=184	=184	=184	=184	=184
!	!	!	!	!	!	!LO:TX:a:t=P:problem=kasownik pod trylem	!
1r	.	4en'>\	.	4cc#X'>\	.	1ggg#Xtt>	.
.	.	8an'>\L	.	8cc#'>\L	.	.	.
.	.	8f#'>\J	.	8cc#'>\J	.	.	.
.	.	4e'>\	.	4cc#'>\	.	.	.
.	.	(>4e\	.	(<4g#X/	.	.	.
=185	=185	=185	=185	=185	=185	=185	=185
1r	.	4d#X\	.	4f#/	.	1ggg#Xttt>	.
.	.	4c#X/	.	4e/	.	.	.
.	.	4G#X/	.	4d#X/	.	.	.
.	.	4E/	.	4c#X/	.	.	.
!!LO:REH:t=O
=186	=186	=186	=186	=186	=186	=186	=186
*tremolo	*	*	*	*	*	*	*
!	!LO:DY:b:rj	!	!	!	!	!	!
12GG#X/L	pp	8D#X/)	.	8B#X/)	.	8ggg'>\	.
12GG#/	.	.	.	.	.	.	.
.	.	8r	.	8r	.	8r	.
12GG#/J	.	.	.	.	.	.	.
!LO:TX:b:B:t=O:color=blue:mod=	!	!	!	!	!	!LO:TX:a:B:t=O:color=blue:mod=	!
12AA/L	.	4r	.	4r	.	4r	.
12AA/	.	.	.	.	.	.	.
12AA/J	.	.	.	.	.	.	.
*	*	*tremolo	*	*	*	*	*
!	!	!	!LO:DY:b:rj	!	!	!	!
12BB#X/L	.	12G#X/L	pp	2r	.	2r	.
12BB#/	.	12G#/	.	.	.	.	.
12BB#/J	.	12G#/J	.	.	.	.	.
12C#X/L	.	12A/L	.	.	.	.	.
12C#/	.	12A/	.	.	.	.	.
12C#/J	.	12A/J	.	.	.	.	.
=187	=187	=187	=187	=187	=187	=187	=187
!	!	!	!	!	!LO:DY:b:rj	!	!
12D\L	.	12B/L	.	4a'</	pp	1r	.
12D\	.	12B/	.	.	.	.	.
12D\J	.	12B/J	.	.	.	.	.
12D#X\L	.	12B#X/L	.	8a'</L	.	.	.
12D#\	.	12B#/	.	.	.	.	.
.	.	.	.	8a'</J	.	.	.
12D#\J	.	12B#/J	.	.	.	.	.
12E\L	.	12c#X\L	.	4a'</	.	.	.
12E\	.	12c#\	.	.	.	.	.
12E\J	.	12c#\J	.	.	.	.	.
12F#\L	.	12d#X\L	.	4f#'</	.	.	.
12F#\	.	12d#\	.	.	.	.	.
12F#\J	.	12d#\J	.	.	.	.	.
!!LO:LB:g=original
=188	=188	=188	=188	=188	=188	=188	=188
!	!LO:HP:b:t=crescendo	!	!LO:HP:b:t=crescendo	!	!LO:HP:b:t=crescendo	!	!
12Gn\L	<	12e\L	<	4b'</	<	1r	.
12G\	.	12e\	.	.	.	.	.
12G\J	.	12e\J	.	.	.	.	.
12G#X\L	.	12e#X\L	.	8b'</L	.	.	.
12G#\	.	12e#\	.	.	.	.	.
.	.	.	.	8b'</J	.	.	.
12G#\J	.	12e#\J	.	.	.	.	.
12A\L	.	12f#\L	.	4b'</	.	.	.
12A\	.	12f#\	.	.	.	.	.
12A\J	.	12f#\J	.	.	.	.	.
12B\L	.	12gn\L	.	4gn/	.	.	.
12B\	.	12g\	.	.	.	.	.
12B\J	.	12g\J	.	.	.	.	.
=189	=189	=189	=189	=189	=189	=189	=189
12c\L	.	12a\L	.	4cc'>\	.	1r	.
12c\	.	12a\	.	.	.	.	.
12c\J	.	12a\J	.	.	.	.	.
12B\L	.	12g\L	.	8cc'>\L	.	.	.
12B\	.	12g\	.	.	.	.	.
.	.	.	.	8cc'>\J	.	.	.
12B\J	.	12g\J	.	.	.	.	.
12A\L	.	12f#\L	.	4cc'>\	.	.	.
12A\	.	12f#\	.	.	.	.	.
12A\J	.	12f#\J	.	.	.	.	.
12Gn\L	.	12e\L	.	4a'>\	.	.	.
12G\	.	12e\	.	.	.	.	.
12G\J	.	12e\J	.	.	.	.	.
=190	=190	=190	=190	=190	=190	=190	=190
*	*	*	*	*tremolo	*	*	*
!	!LO:DY:b	!	!LO:DY:b	!	!LO:DY:b	!	!LO:DY:b
12F#\L	mf	12d#X\L	mf	12b\L	mf	4ff#'>\	mf
12F#\	.	12d#\	.	12b\	.	.	.
12F#\J	.	12d#\J	.	12b\J	.	.	.
12G\L	.	12e\L	.	12cc\L	.	8ff#'>\L	.
12G\	.	12e\	.	12cc\	.	.	.
.	.	.	.	.	.	8ff#'>\J	.
12G\J	.	12e\J	.	12cc\J	.	.	.
12A\L	.	12f#\L	.	12dd#X\L	.	4ff#'>\	.
!	!	!	!	!	!	!	!LO:MO:mod=!null:null
!	!	!	!	!	!	!	!LO:HP:b:t=crescendo
!	!	!	!	!	!	!	!LO:MO:mod=.
12A\	.	12f#\	.	12dd#\	.	.	<
12A\J	.	12f#\J	.	12dd#\J	.	.	.
!	!	!	!	!	!	!LO:MO:null:mod=!LO&colon;TX&colon;b&colon;i&colon;t=crescendo	!
!	!LO:HP:b:t=crescendo	!	!LO:HP:b:t=crescendo	!	!LO:HP:b:t=crescendo	!	!
12G\L	<	12e\L	<	12cc\L	<	4dd#X'>\	.
12G\	.	12e\	.	12cc\	.	.	.
12G\J	.	12e\J	.	12cc\J	.	.	.
=191	=191	=191	=191	=191	=191	=191	=191
12F#\L	.	12d#X\L	.	12b\L	.	4aa'>\	.
12F#\	.	12d#\	.	12b\	.	.	.
12F#\J	.	12d#\J	.	12b\J	.	.	.
12G\L	.	12e\L	.	12cc\L	.	8aa'>\L	.
12G\	.	12e\	.	12cc\	.	.	.
.	.	.	.	.	.	8aa'>\J	.
12G\J	.	12e\J	.	12cc\J	.	.	.
12A\L	.	12f#\L	.	12dd#X\L	.	4aa'>\	.
12A\	.	12f#\	.	12dd#\	.	.	.
12A\J	.	12f#\J	.	12dd#\J	.	.	.
12G\L	.	12e\L	.	12cc\L	.	4ff#'>\	.
12G\	.	12e\	.	12cc\	.	.	.
12G\J	.	12e\J	.	12cc\J	.	.	.
=192	=192	=192	=192	=192	=192	=192	=192
*	*	*	*	*	*	*tremolo	*
12F#\L	.	12d#X\L	.	12b\L	.	12aa'>\L	.
12F#\	.	12d#\	.	12b\	.	12aa'>\	.
12F#\J	.	12d#\J	.	12b\J	.	12aa'>\J	.
12G\L	.	12e\L	.	12cc\L	.	12ff#\L	.
12G\	.	12e\	.	12cc\	.	12ff#\	.
12G\J	.	12e\J	.	12cc\J	.	12ff#\J	.
12F#\L	.	12d#\L	.	12b\L	.	12aa\L	.
12F#\	.	12d#\	.	12b\	.	12aa\	.
12F#\J	.	12d#\J	.	12b\J	.	12aa\J	.
!	!	!	!	!	!	!LO:TX:a:t=P:problem=tremolo (kreseczka na kaudzie) dorysowana niebieską kredką	!
12G\L	.	12e\L	.	12cc\L	.	12ff#\L	.
12G\	.	12e\	.	12cc\	.	12ff#\	.
12G\J	.	12e\J	.	12cc\J	.	12ff#\J	.
!!LO:LB:g=original
=193	=193	=193	=193	=193	=193	=193	=193
12F#\L	.	12d#X\L	.	12b\L	.	12aa\L	.
12F#\	.	12d#\	.	12b\	.	12aa\	.
12F#\J	.	12d#\J	.	12b\J	.	12aa\J	.
12G\L	.	12e\L	.	12cc\L	.	12ff#\L	.
12G\	.	12e\	.	12cc\	.	12ff#\	.
12G\J	.	12e\J	.	12cc\J	.	12ff#\J	.
12F#\L	.	12d#\L	.	12b\L	.	12aa\L	.
12F#\	.	12d#\	.	12b\	.	12aa\	.
12F#\J	.	12d#\J	.	12b\J	.	12aa\J	.
12G\L	.	12e\L	.	12cc\L	.	12ff#\L	.
12G\	.	12e\	.	12cc\	.	12ff#\	.
12G\J	.	12e\J	.	12cc\J	.	12ff#\J	.
=194	=194	=194	=194	=194	=194	=194	=194
!	!LO:DY:b:rj	!	!LO:DY:b:rj	!	!LO:DY:b:rj	!	!LO:DY:b
12F#\L	f	12d#X\L	f	12b\L	f	12aa\L	f
12F#\	.	12d#\	.	12b\	.	12aa\	.
12F#\J	.	12d#\J	.	12b\J	.	12aa\J	.
12F#L 12BB\	.	12d#\L	.	12bL 12a/	.	12ff#\L	.
12F# 12BB\	.	12d#\	.	12b 12a/	.	12ff#\	.
!	!LO:HP:b	!	!LO:HP:b	!	!LO:HP:b	!	!
12F#J 12BB\	<	12d#\J	<	12bJ 12a/	<	12ff#\J	.
!	!	!	!	!	!	!	!LO:HP:b
12F#L 12BB\	.	12d#\L	.	12bL 12a/	.	12bb\L	<
12F# 12BB\	.	12d#\	.	12b 12a/	.	12bb\	.
12F#J 12BB\	.	12d#\J	.	12bJ 12a/	.	12bb\J	.
12F#L 12BB\	.	12d#\L	.	12bL 12a/	.	12ff#\L	.
12F# 12BB\	.	12d#\	.	12b 12a/	.	12ff#\	.
12F#J 12BB\	.	12d#\J	.	12bJ 12a/	.	12ff#\J	.
=195	=195	=195	=195	=195	=195	=195	=195
12F#L 12BB\	[	12d#X\L	[	12bL 12a/	[	12bb\L	.
12F# 12BB\	.	12d#\	.	12b 12a/	.	12bb\	.
12F#J 12BB\	.	12d#\J	.	12bJ 12a/	.	12bb\J	[
12F#L 12BB\	.	12d#\L	.	12bL 12a/	.	12ff#\L	.
12F# 12BB\	.	12d#\	.	12b 12a/	.	12ff#\	.
12F#J 12BB\	.	12d#\J	.	12bJ 12a/	.	12ff#\J	.
12F#L 12BB\	.	12d#\L	.	12bL 12a/	.	8bb\	.
12F# 12BB\	.	12d#\	.	12b 12a/	.	.	.
.	.	.	.	.	.	8r	.
12F#J 12BB\	.	12d#\J	.	12bJ 12a/	.	.	.
!	!LO:DY:b:rj	!	!LO:DY:b:rj	!	!LO:DY:b:rj	!	!LO:DY:b
12BB/L	ff	12d#L 12F#/	ff	12aL 12f#/	ff	32r	ff
.	.	.	.	.	.	(>32bu\LLL	.
.	.	.	.	.	.	32cc#X\	.
12BB/	.	12d# 12F#/	.	12a 12f#/	.	.	.
.	.	.	.	.	.	32dd#X\	.
.	.	.	.	.	.	32ee\	.
.	.	.	.	.	.	32ff#\	.
12BB/J	.	12d#J 12F#/	.	12aJ 12f#/	.	.	.
.	.	.	.	.	.	32gg\	.
.	.	.	.	.	.	32aa\JJJ	.
=196	=196	=196	=196	=196	=196	=196	=196
8G 8BB 8EE/	.	8e 8G/	.	8g 8B/	.	4bb\)	.
8r	.	8r	.	8r	.	.	.
.	.	.	.	.	.	(<16qqaa/LL	.
.	.	.	.	.	.	16qqbb/JJ	.
12CL 12EE/	.	12eL 12A/	.	12aL 12c/	.	(>8.aa\L)	.
12C 12EE/	.	12e 12A/	.	12a 12c/	.	.	.
12CJ 12EE/	.	12eJ 12A/	.	12aJ 12c/	.	.	.
.	.	.	.	.	.	16ff#'>\Jk	.
8BB 8EE/	.	8e 8G/	.	8g 8B/	.	4gg\)	.
8r	.	8r	.	8r	.	.	.
.	.	.	.	.	.	(<16qqff#/LL	.
.	.	.	.	.	.	16qqgg/JJ	.
12BBL 12EE/	.	12f#L 12A\	.	12aL 12d/	.	(>8.ff#\L)	.
12BB 12EE/	.	12f# 12A\	.	12a 12d/	.	.	.
12BBJ 12EE/	.	12f#J 12A\	.	12aJ 12d/	.	.	.
.	.	.	.	.	.	16ddn'>\Jk)	.
!!LO:LB:g=original
=197	=197	=197	=197	=197	=197	=197	=197
8BB 8EE/	.	8g 8c\	.	8cc 8e/	.	4ee\	.
8r	.	8r	.	8r	.	.	.
.	.	.	.	.	.	(<16qqdd/LL	.
.	.	.	.	.	.	16qqee/JJ	.
12BBL 12EE/	.	12f#L 12A/	.	12aL 12d/	.	(>8.dd\L)	.
12BB 12EE/	.	12f# 12A/	.	12a 12d/	.	.	.
12BBJ 12EE/	.	12f#J 12A/	.	12aJ 12d/	.	.	.
.	.	.	.	.	.	16cc'>\Jk)	.
8BB 8EE/	.	8e 8G/	.	8g 8B/	.	8.b\L	.
8r	.	8r	.	8r	.	.	.
!	!	!	!	!	!	!	!LO:HP:b
.	.	.	.	.	.	(>16b\Jk	>
12BBL 12EE/	.	12eL 12G/	.	12gL 12B/	.	4ee\)	.
12BB 12EE/	.	12e 12G/	.	12g 12B/	.	.	.
12BBJ 12EE/	.	12eJ 12G/	.	12gJ 12B/	.	.	]]
=198	=198	=198	=198	=198	=198	=198	=198
!	!	!	!	!	!	!	!LO:DY:b
8AA/	.	8e 8A/	.	8e 8c/	.	4f#/	mf
8r	.	8r	.	8r	.	.	.
!	!	!	!	!	!	!	!LO:HP:b
4r	.	4r	.	4r	.	(<8.g/L	<
.	.	.	.	.	.	16a'</Jk)	.
4r	.	4r	.	4r	.	(<[<2b/	[
!	!LO:DY:b:rj	!	!LO:DY:b:rj	!	!LO:DY:b:rj	!	!
12GG/L	f	12E/L	f	12eL 12B/	f	.	.
12GG/	.	12E/	.	12e 12B/	.	.	.
12GG/J	.	12E/J	.	12eJ 12B/	.	.	.
=199	=199	=199	=199	=199	=199	=199	=199
8AA/	.	8F#/	.	8e 8c/	.	8.b/L]	.
8r	.	8r	.	8r	.	.	.
.	.	.	.	.	.	16f#'</Jk)	.
4r	.	4r	.	4r	.	(8.g/L	.
.	.	.	.	.	.	16a~</Jk)	.
4r	.	4r	.	4r	.	(<[<2b/	.
!	!LO:DY:b:rj	!	!LO:DY:b:rj	!	!LO:DY:b:rj	!	!
12AA/L	f	12F#/L	f	12eL 12c/	f	.	.
12AA/	.	12F#/	.	12e 12c/	.	.	.
12AA/J	.	12F#/J	.	12eJ 12c/	.	.	.
*Xtremolo	*	*Xtremolo	*	*Xtremolo	*	*Xtremolo	*
=200	=200	=200	=200	=200	=200	=200	=200
8BB/	.	8G/	.	8e 8B/	.	8.b/L]	.
!LO:TX:b:B:t=P:color=blue	!	!	!	!	!	!	!
8r	.	8r	.	8r	.	.	.
!	!	!	!	!	!	!LO:TX:a:B:t=P:color=blue	!
.	.	.	.	.	.	16f#'</Jk)	.
4r	.	4r	.	4r	.	8g/L	.
.	.	.	.	.	.	16r	.
.	.	.	.	.	.	16a/Jk	.
2r	.	2r	.	2r	.	8b\L	.
.	.	.	.	.	.	16r	.
!	!	!	!	!	!	!	!LO:HP:b
.	.	.	.	.	.	16dd#X\Jk	<
.	.	.	.	.	.	8ee\L	.
.	.	.	.	.	.	16r	.
.	.	.	.	.	.	16ff#\Jk	.
=201	=201	=201	=201	=201	=201	=201	=201
2r	.	2r	.	2r	.	8gg\L	.
.	.	.	.	.	.	16r	.
.	.	.	.	.	.	16ff#\Jk	.
.	.	.	.	.	.	8gg\L	.
.	.	.	.	.	.	16r	.
.	.	.	.	.	.	16aa\Jk	.
!	!LO:DY:a	!	!LO:DY:a	!	!LO:DY:a	!	!
8F# 8BB\	sfz	8f# 8A\	sfz	8dd#X 8f# 8B/	sfz	8bb\L	[
8r	.	8r	.	8r	.	16r	.
.	.	.	.	.	.	16bb\Jk	.
4r	.	4r	.	4r	.	8ccc#X\L	.
.	.	.	.	.	.	16r	.
.	.	.	.	.	.	16ddd#X\Jk	.
!!LO:PB:g=original
=202	=202	=202	=202	=202	=202	=202	=202
!	!	!	!	!	!	!LO:MO:mod=!LO&colon;TX&colon;a&colon;i&colon;t=Piu mosso	!
!LO:TX:b:i:t=marcatissimo	!LO:DY:b:rj	!LO:TX:b:i:t=marcatissimo	!LO:DY:b:rj	!LO:TX:b:i:t=marcatissimo	!LO:DY:b:rj	!LO:TX:a:i:t=Piu mosso:color=blue	!
4G 4BB 4EE/	ff	4g 4B 4E/	ff	4ee 4b 4e\	ff	4eee\	.
4E 4AA 4CC/	.	4a 4g 4A\	.	4gg 4cc 4e\	.	4r	.
4G 4BB 4EE/	.	4g 4B 4E/	.	4ee 4b 4e\	.	4r	.
4E 4AA 4CC/	.	4a 4g 4A\	.	4gg 4cc 4e\	.	8.r	.
*	*	*	*	*	*	*tuplet	*
!	!	!	!	!	!	!LO:TUP:a	!
.	.	.	.	.	.	(>48bb\LLL	.
.	.	.	.	.	.	48ccc\	.
.	.	.	.	.	.	48ddd\JJJ	.
=203	=203	=203	=203	=203	=203	=203	=203
!	!	!	!	!	!	!	!LO:DY:b:rj
4G 4BB 4EE/	.	4g 4B 4E/	.	4ee 4b 4e\	.	4eee\)	ff
.	.	.	.	.	.	(<16qqddd/LL	.
.	.	.	.	.	.	16qqeee/JJ	.
4AA/	.	4a 4f# 4c 4C/	.	4ff# 4cc 4a\	.	(>8.ddd\L)	.
.	.	.	.	.	.	16ccc'>\Jk)	.
4BB/	.	4a 4f# 4B\	.	4dd#X 4f# 4B/	.	4bb\	.
4AA/	.	4f# 4B\	.	4b 4d#X/	.	8.r	.
!	!	!	!	!	!	!LO:TUP:a	!
.	.	.	.	.	.	(>48bb\LLL	.
.	.	.	.	.	.	48ccc#X\	.
.	.	.	.	.	.	48ddd#X\JJJ	.
=204	=204	=204	=204	=204	=204	=204	=204
4B/ 4E/ 4GG/	.	4g 4B 4E/	.	4bb 4b 4e\	.	4eee\)	.
8EL 8GG/	.	8gL 8B 8E/	.	8bbL 8b 8e\	.	(>8.ddd#X\L	.
8EJ 8GG/	.	8gJ 8B 8E/	.	8bbJ 8b 8e\	.	.	.
.	.	.	.	.	.	16eee'>\Jk)	.
4E 4GG/	.	4g 4B 4E/	.	4bb 4b 4e\	.	4eee\	.
4G 4BB 4EE/	.	4g 4B 4E/	.	4gg 4b 4e\	.	8.r	.
!	!	!	!	!	!	!LO:TUP:a	!
.	.	.	.	.	.	(>48bb\LLL	.
.	.	.	.	.	.	48ccc#X\	.
.	.	.	.	.	.	48ddd#\JJJ	.
=205	=205	=205	=205	=205	=205	=205	=205
4G 4BB 4EE/	.	4g 4B 4E/	.	4ee 4b 4e\	.	4eee\)	.
.	.	.	.	.	.	(<16qqdddn/LL	.
.	.	.	.	.	.	16qqeee/JJ	.
4G 4BB 4EE/	.	4g 4B 4E/	.	4gg 4b 4e\	.	(>8.ddd\L)	.
.	.	.	.	.	.	16bb'>\Jk)	.
4c 4E 4GG\	.	4g 4c 4E/	.	4ee 4g 4G/	.	4ccc\	.
.	.	.	.	.	.	(<16qqbb/LL	.
.	.	.	.	.	.	16qqccc/JJ	.
4d#X 4F# 4BB\	.	4a 4B\	.	4dd#X 4f# 4B/	.	(>8.bb\L)	.
.	.	.	.	.	.	16aa'>\Jk)	.
=206	=206	=206	=206	=206	=206	=206	=206
4e 4G 4BB 4EE\	.	4g 4B 4E/	.	4ee 4b 4e/	.	4gg\	.
.	.	.	.	.	.	(<16qqaa/LL	.
.	.	.	.	.	.	16qqbb/JJ	.
4BB 4EE/	.	4a 4c\	.	4cc 4e 4A/	.	(>8.aa\L)	.
.	.	.	.	.	.	16ff#'>\Jk)	.
4BB 4EE/	.	4g 4B\	.	4b 4e 4G/	.	4bb\	.
.	.	.	.	.	.	16qqaa/LL	.
.	.	.	.	.	.	16qqbb/JJ	.
4BB 4EE/	.	4a 4B\	.	4dd#X 4f# 4B/	.	(>8.aa\L	.
.	.	.	.	.	.	16ff#'>\Jk)	.
!!LO:LB:g=original
=207	=207	=207	=207	=207	=207	=207	=207
4G 4BB 4EE/	.	4g 4B\	.	4ee 4b 4e 4G/	.	4bb\	.
.	.	.	.	.	.	(<16qqaa/LL	.
.	.	.	.	.	.	16qqbb/JJ	.
8BBL 8EE/	.	8gL 8B 8E/	.	8eeL 8b 8e/	.	(>8.aa\L)	.
8BBJ 8EE/	.	8gJ 8B 8E/	.	8eeJ 8b 8e/	.	.	.
.	.	.	.	.	.	16gg'>\Jk)	.
4BB 4EE/	.	4g 4B 4E/	.	4ee 4b 4e/	.	4bb\	.
.	.	.	.	.	.	(<16qqgg/LL	.
.	.	.	.	.	.	16qqaa/JJ	.
4BB 4EE/	.	4g 4B 4E/	.	4b 4e 4G/	.	(>8.gg\L)	.
.	.	.	.	.	.	16ff#'>\Jk)	.
=208	=208	=208	=208	=208	=208	=208	=208
4BB 4EE/	.	4e 4G/	.	4g 4B/	.	4ee\	.
.	.	.	.	.	.	(<16qqff#/LL	.
.	.	.	.	.	.	16qqgg/JJ	.
8BBL 8EE/	.	8gL 8B 8E/	.	8bL 8e/	.	(>8.ff#\L)	.
8BBJ 8EE/	.	8gJ 8B 8E/	.	8bJ 8e/	.	.	.
.	.	.	.	.	.	16ee'>\Jk)	.
4BB 4EE/	.	4g 4B 4E/	.	4b 4e/	.	4gg\	.
.	.	.	.	.	.	(<16qqff#/LL	.
.	.	.	.	.	.	16qqgg/JJ	.
4BB 4EE/	.	4e 4G/	.	4g 4B/	.	(>8.ff#\L)	.
.	.	.	.	.	.	16ee'>\Jk)	.
=209	=209	=209	=209	=209	=209	=209	=209
4BB 4EE/	.	4B 4E/	.	4e 4G/	.	4ee\	.
4G 4BB 4EE/	.	4g 4B 4E/	.	4ee 4b 4e 4G/	.	8.r	.
*	*	*	*	*	*	*Xtuplet	*
.	.	.	.	.	.	(>48bb\LLL	.
.	.	.	.	.	.	48ccc\	.
.	.	.	.	.	.	48ddd\JJJ)	.
4G 4BB 4EE/	.	4g 4B 4E/	.	4ee 4b 4e 4G/	.	4eee\	.
4G 4BB 4EE/	.	4g 4B 4E/	.	4ee 4b 4e 4G/	.	8.r	.
.	.	.	.	.	.	(>48bb\LLL	.
.	.	.	.	.	.	48ccc\	.
.	.	.	.	.	.	48ddd\JJJ	.
=210	=210	=210	=210	=210	=210	=210	=210
4G 4BB 4EE/	.	4g 4B 4E/	.	4ee 4b 4e 4G/	.	4eee\)	.
4G 4BB 4EE/	.	4g 4B 4E/	.	4ee 4b 4e 4G/	.	8.r	.
.	.	.	.	.	.	(>48bb\LLL	.
.	.	.	.	.	.	48ccc\	.
.	.	.	.	.	.	48ddd\JJJ	.
4G 4BB 4EE/	.	4g 4B 4E/	.	4ee 4b 4e 4G/	.	4eee\)	.
4G 4BB 4EE/	.	4g 4B 4E/	.	4ee 4b 4e 4G/	.	8.r	.
.	.	.	.	.	.	(>48bb\LLL	.
.	.	.	.	.	.	48ccc\	.
.	.	.	.	.	.	48ddd\JJJ	.
!!LO:LB:g=original
=211	=211	=211	=211	=211	=211	=211	=211
4G 4BB 4EE/	.	4g 4B 4E/	.	4ee 4b 4e 4G/	.	4eee\)	.
.	.	.	.	.	.	(<16qqddd/LL	.
.	.	.	.	.	.	16qqeee/JJ	.
4r	.	4r	.	4r	.	(>8.ddd\L)	.
.	.	.	.	.	.	16bb'>\Jk)	.
2r	.	2r	.	2r	.	4ccc\	.
.	.	.	.	.	.	8.r	.
*	*	*	*	*	*	*tuplet	*
!	!	!	!	!	!	!LO:TUP:a	!
.	.	.	.	.	.	(>48bb\LLL	.
.	.	.	.	.	.	48ccc\	.
.	.	.	.	.	.	48ddd\JJJ	.
=212	=212	=212	=212	=212	=212	=212	=212
!	!LO:DY:a	!	!LO:DY:a	!	!LO:DY:a	!	!
4G 4BB 4EE/	sfz	4g 4B 4E/	sfz	4ee 4b 4e 4G/	sfz	4eee\)	.
.	.	.	.	.	.	(<16qqddd/LL	.
.	.	.	.	.	.	16qqeee/JJ	.
4r	.	4r	.	4r	.	(>8.ddd\L)	.
.	.	.	.	.	.	16ccc'>\Jk)	.
2r	.	2r	.	2r	.	4bb\	.
.	.	.	.	.	.	8.r	.
!	!	!	!	!	!	!LO:TUP:a	!
.	.	.	.	.	.	(>48bb\LLL	.
.	.	.	.	.	.	48ccc\	.
.	.	.	.	.	.	48ddd\JJJ	.
=213	=213	=213	=213	=213	=213	=213	=213
!	!LO:DY:a	!	!LO:DY:a	!	!LO:DY:a	!	!
4G 4BB 4EE/	sfz	4g 4B 4E/	sfz	4ee 4b 4e 4G/	sfz	4eee\)	.
4r	.	4r	.	4r	.	4r	.
!	!LO:DY:a	!	!LO:DY:a	!	!LO:DY:a	!	!LO:DY:a
4d#X 4F# 4BB\	sfz	4f# 4B 4D#X/	sfz	4dd#X 4f# 4B/	sfz	4bb 4dd#X 4f# 4B/	sfz
4r	.	4r	.	4r	.	4r	.
=214	=214	=214	=214	=214	=214	=214	=214
!	!LO:DY:a	!	!LO:DY:a	!	!LO:DY:a	!	!LO:DY:a
4e 4G 4BB 4EE\	sfz	4g 4B 4E/	sfz	4ee 4b 4g 4B/	sfz	4ee 4b 4e 4G/	sfz
4r	.	4r	.	4r	.	4r	.
2r	.	2r	.	2r	.	2r	.
==	==	==	==	==	==	==	==
*-	*-	*-	*-	*-	*-	*-	*-
!!!system-decoration: {(s1,s2,s3,s4)}
!!!RDF**kern: @ = marked note, color=green
!!!RDF**kern: > = above
!!!RDF**kern: < = below
!!!ENC-modern: Leszek Kubiak
!!!END-modern: 2022-08-19
!!!ENC: Antoni Szymański
!!!END: 2021-08-27
!!!ENC: Mateusz Solarz
!!!END: 2021-07-21
!!!filter-modern: sic -sq | autostem -r | shed -e "s/LO:DY:(a|b|rj)/LO:dy:$1/L" | shed -e "s/TUP/tup/L; s/^(X)?tuplet/$1TUPLET/I" | shed -k -e "s/([^a-gA-Gn#X-])[<>]/$1/g" | shed -k -e "s/([\(\)\[\]_])[><]/$1/g" | shed -e "s/^(X?)rep$/$1REP/I" | shed -e "s/TX(.*):t=P:/tx$1:t=P:/LG" | modori -m
!!!YEC: Copyright 2022 Narodowy Instytut Fryderyka Chopina (https://polishscores.org)
!!!YEM: License CC-BY-4.0 (https://creativecommons.org/licenses/by/4.0)
